;FLAVOR:Marlin
;TIME:6098
;Filament used: 6.33803m
;Layer height: 0.25
;MINX:75.75
;MINY:82.82
;MINZ:0.2
;MAXX:143.669
;MAXY:137.182
;MAXZ:27.95
;Generated with Cura_SteamEngine 4.4.1
M140 S110
M105
M190 S110
M104 S245
M105
M109 S245
M82 ;absolute extrusion mode
M201 X500.00 Y500.00 Z100.00 E5000.00 ;Setup machine max acceleration
M203 X500.00 Y500.00 Z10.00 E50.00 ;Setup machine max feedrate
M204 P500.00 R1000.00 T500.00 ;Setup Print/Retract/Travel acceleration
M205 X8.00 Y8.00 Z0.40 E5.00 ;Setup Jerk
M220 S100 ;Reset Feedrate
M221 S100 ;Reset Flowrate

G28 ;Home

G92 E0 ;Reset Extruder
G1 Z2.0 F3000 ;Move Z Axis up
G1 X10.1 Y20 Z0.28 F5000.0 ;Move to start position
G1 X10.1 Y200.0 Z0.28 F1500.0 E15 ;Draw the first line
G1 X10.4 Y200.0 Z0.28 F5000.0 ;Move to side a little
G1 X10.4 Y20 Z0.28 F1500.0 E30 ;Draw the second line
G92 E0 ;Reset Extruder
G1 Z2.0 F3000 ;Move Z Axis up

G92 E0
G92 E0
G1 F1500 E-6.5
;LAYER_COUNT:112
;LAYER:0
M107
G0 F6000 X79.522 Y85.776 Z0.2
;TYPE:SKIRT
G1 F1500 E0
G1 F1200 X80.249 Y85.166 E0.03946
G1 X81.025 Y84.621 E0.07888
G1 X81.844 Y84.142 E0.11833
G1 X82.7 Y83.735 E0.15773
G1 X83.588 Y83.401 E0.19718
G1 X84.501 Y83.142 E0.23663
G1 X85.432 Y82.962 E0.27606
G1 X86.375 Y82.861 E0.31548
G1 X86.894 Y82.839 E0.33708
G1 X87.751 Y82.823 E0.37272
G1 X87.953 Y82.821 E0.38112
G1 X89.387 Y82.82 E0.44074
G1 X89.438 Y82.82 E0.44286
G1 X92.341 Y82.831 E0.56355
G1 X122.294 Y82.832 E1.80885
G1 X122.457 Y82.833 E1.81563
G1 X123.423 Y82.847 E1.85579
G1 X123.895 Y82.864 E1.87543
G1 X124.426 Y82.894 E1.89754
G1 X125.066 Y82.948 E1.92424
G1 X125.557 Y83.004 E1.94479
G1 X125.918 Y83.052 E1.95993
G1 X126.231 Y83.098 E1.97308
G1 X126.86 Y83.208 E1.99963
G1 X127.366 Y83.312 E2.02111
G1 X127.717 Y83.39 E2.03606
G1 X128.014 Y83.461 E2.04875
G1 X128.598 Y83.618 E2.07389
G1 X129.09 Y83.764 E2.09523
G1 X129.448 Y83.876 E2.11083
G1 X129.754 Y83.978 E2.12424
G1 X130.329 Y84.188 E2.14969
G1 X130.767 Y84.361 E2.16926
G1 X131.1 Y84.498 E2.18424
G1 X131.389 Y84.623 E2.19733
G1 X131.954 Y84.887 E2.22325
G1 X132.444 Y85.132 E2.24603
G1 X132.776 Y85.304 E2.26158
G1 X133.06 Y85.458 E2.27501
G1 X133.572 Y85.754 E2.29959
G1 X133.928 Y85.972 E2.31695
G1 X134.243 Y86.172 E2.33246
G1 X134.545 Y86.371 E2.3475
G1 X135.066 Y86.736 E2.37395
G1 X135.506 Y87.063 E2.39674
G1 X135.783 Y87.275 E2.41124
G1 X136.024 Y87.466 E2.42403
G1 X136.474 Y87.842 E2.44841
G1 X136.777 Y88.109 E2.4652
G1 X137.048 Y88.357 E2.48047
G1 X137.302 Y88.596 E2.49497
G1 X137.759 Y89.051 E2.52178
G1 X138.174 Y89.489 E2.54687
G1 X138.433 Y89.772 E2.56281
G1 X138.625 Y89.989 E2.57486
G1 X139.016 Y90.455 E2.60015
G1 X139.28 Y90.788 E2.61782
G1 X139.46 Y91.022 E2.63009
G1 X139.665 Y91.295 E2.64429
G1 X140.063 Y91.861 E2.67305
G1 X140.372 Y92.33 E2.6964
G1 X140.578 Y92.654 E2.71237
G1 X140.735 Y92.911 E2.72489
G1 X141.021 Y93.407 E2.74869
G1 X141.248 Y93.825 E2.76847
G1 X141.417 Y94.149 E2.78366
G1 X141.563 Y94.44 E2.79719
G1 X141.825 Y94.999 E2.82286
G1 X142.032 Y95.475 E2.84444
G1 X142.168 Y95.802 E2.85917
G1 X142.281 Y96.086 E2.87187
G1 X142.51 Y96.716 E2.89974
G1 X142.659 Y97.167 E2.91949
G1 X142.749 Y97.452 E2.93192
G1 X142.852 Y97.794 E2.94676
G1 X143.023 Y98.426 E2.97398
G1 X143.139 Y98.912 E2.99476
G1 X143.202 Y99.195 E3.00681
G1 X143.264 Y99.488 E3.01926
G1 X143.393 Y100.214 E3.04992
G1 X143.469 Y100.742 E3.0721
G1 X143.506 Y101.02 E3.08376
G1 X143.543 Y101.332 E3.09682
G1 X143.602 Y102.007 E3.12499
G1 X143.628 Y102.456 E3.14369
G1 X143.642 Y102.763 E3.15647
G1 X143.664 Y103.485 E3.1865
G1 X143.669 Y103.829 E3.2008
G1 X143.668 Y115.798 E3.69841
G1 X143.667 Y115.961 E3.70519
G1 X143.653 Y116.922 E3.74515
G1 X143.636 Y117.39 E3.76462
G1 X143.606 Y117.923 E3.78681
G1 X143.552 Y118.566 E3.81364
G1 X143.496 Y119.057 E3.83419
G1 X143.448 Y119.418 E3.84933
G1 X143.402 Y119.731 E3.86248
G1 X143.292 Y120.36 E3.88903
G1 X143.188 Y120.866 E3.9105
G1 X143.11 Y121.217 E3.92545
G1 X143.039 Y121.514 E3.93815
G1 X142.882 Y122.098 E3.96329
G1 X142.736 Y122.59 E3.98463
G1 X142.624 Y122.948 E4.00022
G1 X142.522 Y123.254 E4.01363
G1 X142.312 Y123.829 E4.03908
G1 X142.139 Y124.267 E4.05866
G1 X142.002 Y124.6 E4.07363
G1 X141.877 Y124.889 E4.08672
G1 X141.613 Y125.454 E4.11265
G1 X141.368 Y125.944 E4.13543
G1 X141.202 Y126.263 E4.15038
G1 X141.049 Y126.546 E4.16375
G1 X140.742 Y127.079 E4.18932
G1 X140.534 Y127.418 E4.20586
G1 X140.351 Y127.707 E4.22008
G1 X140.141 Y128.027 E4.23599
G1 X139.764 Y128.566 E4.26334
G1 X139.437 Y129.006 E4.28613
G1 X139.225 Y129.283 E4.30064
G1 X139.034 Y129.524 E4.31342
G1 X138.658 Y129.974 E4.3378
G1 X138.391 Y130.277 E4.35459
G1 X138.143 Y130.548 E4.36986
G1 X137.904 Y130.802 E4.38436
G1 X137.449 Y131.259 E4.41117
G1 X137.011 Y131.674 E4.43626
G1 X136.728 Y131.933 E4.45221
G1 X136.511 Y132.125 E4.46426
G1 X136.045 Y132.516 E4.48955
G1 X135.712 Y132.78 E4.50721
G1 X135.468 Y132.968 E4.52002
G1 X135.193 Y133.174 E4.5343
G1 X134.642 Y133.561 E4.5623
G1 X134.175 Y133.869 E4.58556
G1 X133.846 Y134.078 E4.60176
G1 X133.589 Y134.235 E4.61428
G1 X133.093 Y134.521 E4.63809
G1 X132.675 Y134.748 E4.65786
G1 X132.351 Y134.917 E4.67305
G1 X132.06 Y135.063 E4.68659
G1 X131.5 Y135.325 E4.71229
G1 X131.033 Y135.528 E4.73346
G1 X130.72 Y135.659 E4.74757
G1 X130.427 Y135.776 E4.76069
G1 X129.784 Y136.01 E4.78914
G1 X129.333 Y136.159 E4.80888
G1 X129.04 Y136.252 E4.82166
G1 X128.697 Y136.355 E4.83655
G1 X128.078 Y136.521 E4.8632
G1 X127.593 Y136.637 E4.88393
G1 X127.305 Y136.702 E4.89621
G1 X127.012 Y136.764 E4.90866
G1 X126.286 Y136.893 E4.93931
G1 X125.758 Y136.969 E4.96149
G1 X125.472 Y137.007 E4.97349
G1 X125.158 Y137.044 E4.98663
G1 X124.494 Y137.102 E5.01434
G1 X124.047 Y137.128 E5.03296
G1 X123.736 Y137.142 E5.0459
G1 X123.013 Y137.164 E5.07597
G1 X122.671 Y137.169 E5.09019
G1 X91.979 Y137.169 E6.36622
G1 X89.074 Y137.182 E6.487
G1 X88.996 Y137.182 E6.49024
G1 X87.791 Y137.179 E6.54034
G1 X87.645 Y137.178 E6.54641
G1 X86.935 Y137.167 E6.57593
G1 X85.988 Y137.112 E6.61537
G1 X85.049 Y136.978 E6.6548
G1 X84.125 Y136.765 E6.69422
G1 X83.222 Y136.475 E6.73365
G1 X82.346 Y136.11 E6.77311
G1 X81.505 Y135.673 E6.81251
G1 X80.703 Y135.166 E6.85196
G1 X79.947 Y134.593 E6.8914
G1 X79.241 Y133.959 E6.93085
G1 X78.592 Y133.268 E6.97026
G1 X78.003 Y132.524 E7.00971
G1 X77.479 Y131.734 E7.04913
G1 X77.023 Y130.902 E7.08857
G1 X76.544 Y129.784 E7.13914
G1 X76.473 Y129.59 E7.14773
G1 X76.185 Y128.687 E7.18713
G1 X75.974 Y127.762 E7.22658
G1 X75.842 Y126.823 E7.266
G1 X75.794 Y126.09 E7.29654
G1 X75.756 Y124.922 E7.34513
G1 X75.75 Y124.556 E7.36035
G1 X75.75 Y95.18 E8.58166
G1 X75.751 Y95.014 E8.58856
G1 X75.76 Y94.405 E8.61388
G1 X75.788 Y93.766 E8.64047
G1 X75.806 Y93.515 E8.65094
G1 X75.913 Y92.573 E8.69035
G1 X76.218 Y91.2 E8.74882
G1 X76.274 Y91.006 E8.75722
G1 X76.576 Y90.107 E8.79665
G1 X76.951 Y89.236 E8.83607
G1 X77.178 Y88.792 E8.85681
G1 X77.199 Y88.753 E8.85865
G1 X77.683 Y87.938 E8.89806
G1 X78.235 Y87.166 E8.93751
G1 X78.849 Y86.444 E8.97692
G1 X79.522 Y85.776 E9.01634
G0 F6000 X79.921 Y86.089
G1 F1200 X80.637 Y85.5 E9.05489
G1 X81.401 Y84.975 E9.09343
G1 X82.207 Y84.517 E9.13197
G1 X83.05 Y84.131 E9.17051
G1 X83.923 Y83.818 E9.20907
G1 X84.82 Y83.583 E9.24762
G1 X85.733 Y83.425 E9.28615
G1 X86.903 Y83.339 E9.33492
G1 X87.76 Y83.323 E9.37056
G1 X87.954 Y83.321 E9.37862
G1 X89.388 Y83.32 E9.43824
G1 X89.436 Y83.32 E9.44024
G1 X92.339 Y83.331 E9.56093
G1 X122.294 Y83.332 E10.80631
G1 X122.45 Y83.333 E10.8128
G1 X123.416 Y83.347 E10.85297
G1 X123.866 Y83.363 E10.87169
G1 X124.397 Y83.393 E10.8938
G1 X125.009 Y83.445 E10.91933
G1 X125.5 Y83.501 E10.93988
G1 X125.845 Y83.546 E10.95434
G1 X126.158 Y83.592 E10.9675
G1 X126.759 Y83.698 E10.99287
G1 X127.265 Y83.802 E11.01435
G1 X127.6 Y83.877 E11.02862
G1 X127.897 Y83.948 E11.04131
G1 X128.456 Y84.097 E11.06537
G1 X128.948 Y84.243 E11.0867
G1 X129.289 Y84.351 E11.10157
G1 X129.595 Y84.453 E11.11498
G1 X130.145 Y84.653 E11.13932
G1 X130.583 Y84.826 E11.15889
G1 X130.902 Y84.957 E11.17323
G1 X131.191 Y85.082 E11.18632
G1 X131.731 Y85.334 E11.2111
G1 X132.221 Y85.579 E11.23387
G1 X132.537 Y85.744 E11.2487
G1 X132.821 Y85.898 E11.26213
G1 X133.311 Y86.18 E11.28563
G1 X133.667 Y86.398 E11.30299
G1 X133.968 Y86.59 E11.31783
G1 X134.27 Y86.789 E11.33287
G1 X134.767 Y87.137 E11.35809
G1 X135.207 Y87.464 E11.38088
G1 X135.472 Y87.667 E11.39476
G1 X135.713 Y87.858 E11.40755
G1 X136.143 Y88.218 E11.43086
G1 X136.446 Y88.485 E11.44765
G1 X136.706 Y88.721 E11.46225
G1 X136.96 Y88.96 E11.47675
G1 X137.397 Y89.395 E11.50239
G1 X137.812 Y89.833 E11.52747
G1 X138.059 Y90.104 E11.54272
G1 X138.251 Y90.321 E11.55476
G1 X138.624 Y90.766 E11.5789
G1 X138.888 Y91.099 E11.59657
G1 X139.06 Y91.322 E11.60828
G1 X139.265 Y91.595 E11.62247
G1 X139.646 Y92.136 E11.64998
G1 X139.955 Y92.605 E11.67333
G1 X140.152 Y92.915 E11.6886
G1 X140.309 Y93.172 E11.70112
G1 X140.582 Y93.646 E11.72387
G1 X140.809 Y94.064 E11.74364
G1 X140.97 Y94.373 E11.75813
G1 X141.116 Y94.664 E11.77166
G1 X141.366 Y95.198 E11.79618
G1 X141.573 Y95.674 E11.81776
G1 X141.703 Y95.987 E11.83185
G1 X141.816 Y96.271 E11.84456
G1 X142.035 Y96.873 E11.87119
G1 X142.184 Y97.324 E11.89094
G1 X142.27 Y97.596 E11.9028
G1 X142.373 Y97.938 E11.91765
G1 X142.536 Y98.542 E11.94366
G1 X142.652 Y99.028 E11.96443
G1 X142.713 Y99.299 E11.97598
G1 X142.775 Y99.592 E11.98843
G1 X142.898 Y100.285 E12.01769
G1 X142.974 Y100.813 E12.03987
G1 X143.009 Y101.079 E12.05102
G1 X143.046 Y101.391 E12.06408
G1 X143.103 Y102.036 E12.09101
G1 X143.129 Y102.485 E12.1097
G1 X143.142 Y102.779 E12.12194
G1 X143.164 Y103.501 E12.15197
G1 X143.169 Y103.829 E12.16561
G1 X143.168 Y115.798 E12.66322
G1 X143.167 Y115.954 E12.66971
G1 X143.153 Y116.915 E12.70967
G1 X143.137 Y117.362 E12.72826
G1 X143.107 Y117.895 E12.75046
G1 X143.055 Y118.509 E12.77607
G1 X142.999 Y119 E12.79662
G1 X142.954 Y119.345 E12.81109
G1 X142.908 Y119.658 E12.82424
G1 X142.802 Y120.259 E12.84961
G1 X142.698 Y120.765 E12.87109
G1 X142.623 Y121.1 E12.88536
G1 X142.552 Y121.397 E12.89806
G1 X142.403 Y121.956 E12.92211
G1 X142.257 Y122.448 E12.94344
G1 X142.149 Y122.789 E12.95831
G1 X142.047 Y123.095 E12.97173
G1 X141.847 Y123.645 E12.99606
G1 X141.674 Y124.083 E13.01564
G1 X141.543 Y124.402 E13.02997
G1 X141.418 Y124.691 E13.04306
G1 X141.166 Y125.231 E13.06784
G1 X140.921 Y125.721 E13.09061
G1 X140.762 Y126.026 E13.10491
G1 X140.609 Y126.309 E13.11829
G1 X140.316 Y126.818 E13.14271
G1 X140.108 Y127.157 E13.15924
G1 X139.933 Y127.433 E13.17283
G1 X139.723 Y127.753 E13.18874
G1 X139.363 Y128.267 E13.21483
G1 X139.036 Y128.707 E13.23762
G1 X138.833 Y128.972 E13.2515
G1 X138.642 Y129.213 E13.26429
G1 X138.282 Y129.643 E13.2876
G1 X138.015 Y129.946 E13.30439
G1 X137.779 Y130.206 E13.31899
G1 X137.54 Y130.46 E13.33349
G1 X137.105 Y130.897 E13.35913
G1 X136.667 Y131.312 E13.38421
G1 X136.396 Y131.559 E13.39946
G1 X136.179 Y131.751 E13.4115
G1 X135.734 Y132.124 E13.43564
G1 X135.401 Y132.388 E13.45331
G1 X135.168 Y132.568 E13.46555
G1 X134.893 Y132.774 E13.47984
G1 X134.367 Y133.144 E13.50657
G1 X133.9 Y133.452 E13.52983
G1 X133.585 Y133.652 E13.54535
G1 X133.328 Y133.809 E13.55787
G1 X132.854 Y134.082 E13.58061
G1 X132.436 Y134.309 E13.60038
G1 X132.127 Y134.47 E13.61487
G1 X131.836 Y134.616 E13.62841
G1 X131.301 Y134.867 E13.65297
G1 X130.834 Y135.07 E13.67414
G1 X130.535 Y135.194 E13.6876
G1 X130.242 Y135.311 E13.70072
G1 X129.627 Y135.535 E13.72793
G1 X129.176 Y135.684 E13.74768
G1 X128.896 Y135.773 E13.75989
G1 X128.553 Y135.876 E13.77478
G1 X127.962 Y136.035 E13.80023
G1 X127.477 Y136.151 E13.82096
G1 X127.201 Y136.213 E13.83272
G1 X126.908 Y136.275 E13.84517
G1 X126.215 Y136.398 E13.87443
G1 X125.687 Y136.474 E13.89661
G1 X125.413 Y136.51 E13.9081
G1 X125.099 Y136.547 E13.92125
G1 X124.465 Y136.603 E13.94771
G1 X124.018 Y136.629 E13.96632
G1 X123.721 Y136.642 E13.97868
G1 X122.998 Y136.664 E14.00876
G1 X122.671 Y136.669 E14.02235
G1 X91.977 Y136.669 E15.29846
G1 X89.072 Y136.682 E15.41924
G1 X88.997 Y136.682 E15.42236
G1 X87.792 Y136.679 E15.47245
G1 X87.652 Y136.678 E15.47827
G1 X86.942 Y136.667 E15.5078
G1 X86.017 Y136.612 E15.54632
G1 X85.099 Y136.479 E15.58489
G1 X84.197 Y136.266 E15.62342
G1 X83.316 Y135.977 E15.66197
G1 X82.464 Y135.612 E15.7005
G1 X81.646 Y135.176 E15.73904
G1 X80.868 Y134.671 E15.7776
G1 X80.137 Y134.101 E15.81614
G1 X79.458 Y133.469 E15.85471
G1 X78.836 Y132.782 E15.89324
G1 X78.275 Y132.044 E15.93178
G1 X77.78 Y131.26 E15.97032
G1 X77.355 Y130.436 E16.00887
G1 X77.014 Y129.613 E16.04591
G1 X76.943 Y129.419 E16.0545
G1 X76.662 Y128.535 E16.09306
G1 X76.458 Y127.631 E16.13159
G1 X76.333 Y126.712 E16.17015
G1 X76.294 Y126.074 E16.19672
G1 X76.256 Y124.906 E16.24531
G1 X76.25 Y124.556 E16.25986
G1 X76.25 Y95.18 E17.48118
G1 X76.251 Y95.021 E17.48779
G1 X76.26 Y94.412 E17.51311
G1 X76.287 Y93.802 E17.53849
G1 X76.305 Y93.551 E17.54896
G1 X76.411 Y92.63 E17.5875
G1 X76.699 Y91.339 E17.64249
G1 X76.755 Y91.145 E17.65089
G1 X77.05 Y90.266 E17.68943
G1 X77.618 Y89.029 E17.74603
G1 X77.639 Y88.99 E17.74787
G1 X78.113 Y88.194 E17.78638
G1 X78.655 Y87.441 E17.82496
G1 X79.259 Y86.738 E17.86349
G1 X79.921 Y86.089 E17.90203
G0 F6000 X80.319 Y86.404
G1 F1200 X81.023 Y85.836 E17.93964
G1 X81.775 Y85.331 E17.9773
G1 X82.568 Y84.895 E18.01492
G1 X83.397 Y84.531 E18.05257
G1 X84.255 Y84.241 E18.09022
G1 X85.135 Y84.028 E18.12786
G1 X86.03 Y83.893 E18.16549
G1 X86.913 Y83.839 E18.20227
G1 X87.77 Y83.823 E18.23791
G1 X87.954 Y83.821 E18.24556
G1 X89.388 Y83.82 E18.30518
G1 X89.434 Y83.82 E18.30709
G1 X92.337 Y83.831 E18.42778
G1 X122.294 Y83.832 E19.67325
G1 X122.443 Y83.833 E19.67945
G1 X123.409 Y83.847 E19.71961
G1 X123.838 Y83.862 E19.73746
G1 X124.369 Y83.892 E19.75957
G1 X124.953 Y83.942 E19.78394
G1 X125.444 Y83.998 E19.80448
G1 X125.772 Y84.041 E19.81824
G1 X126.085 Y84.087 E19.83139
G1 X126.659 Y84.188 E19.85562
G1 X127.165 Y84.292 E19.8771
G1 X127.484 Y84.363 E19.89069
G1 X127.781 Y84.434 E19.90338
G1 X128.314 Y84.577 E19.92632
G1 X128.806 Y84.723 E19.94766
G1 X129.131 Y84.825 E19.96182
G1 X129.437 Y84.927 E19.97523
G1 X129.961 Y85.118 E19.99842
G1 X130.399 Y85.291 E20.018
G1 X130.703 Y85.416 E20.03167
G1 X130.992 Y85.541 E20.04476
G1 X131.507 Y85.781 E20.06838
G1 X131.997 Y86.026 E20.09115
G1 X132.299 Y86.183 E20.10531
G1 X132.583 Y86.337 E20.11874
G1 X133.05 Y86.607 E20.14116
G1 X133.406 Y86.825 E20.15852
G1 X133.693 Y87.007 E20.17265
G1 X133.995 Y87.206 E20.18768
G1 X134.469 Y87.538 E20.21174
G1 X134.909 Y87.865 E20.23454
G1 X135.161 Y88.059 E20.24776
G1 X135.402 Y88.25 E20.26054
G1 X135.813 Y88.593 E20.2828
G1 X136.116 Y88.86 E20.29959
G1 X136.363 Y89.085 E20.31348
G1 X136.617 Y89.324 E20.32798
G1 X137.034 Y89.739 E20.35244
G1 X137.449 Y90.177 E20.37753
G1 X137.685 Y90.435 E20.39206
G1 X137.877 Y90.652 E20.40411
G1 X138.232 Y91.076 E20.4271
G1 X138.496 Y91.409 E20.44477
G1 X138.66 Y91.622 E20.45594
G1 X138.865 Y91.895 E20.47014
G1 X139.228 Y92.411 E20.49637
G1 X139.537 Y92.88 E20.51972
G1 X139.725 Y93.176 E20.5343
G1 X139.882 Y93.433 E20.54682
G1 X140.142 Y93.884 E20.56846
G1 X140.369 Y94.302 E20.58824
G1 X140.524 Y94.597 E20.60209
G1 X140.67 Y94.888 E20.61563
G1 X140.908 Y95.397 E20.63899
G1 X141.115 Y95.873 E20.66057
G1 X141.239 Y96.172 E20.67402
G1 X141.352 Y96.456 E20.68673
G1 X141.561 Y97.03 E20.71213
G1 X141.71 Y97.481 E20.73188
G1 X141.792 Y97.74 E20.74317
G1 X141.895 Y98.082 E20.75802
G1 X142.05 Y98.658 E20.78282
G1 X142.166 Y99.144 E20.80359
G1 X142.224 Y99.402 E20.81459
G1 X142.286 Y99.695 E20.82704
G1 X142.403 Y100.357 E20.85499
G1 X142.479 Y100.885 E20.87716
G1 X142.513 Y101.138 E20.88778
G1 X142.55 Y101.45 E20.90084
G1 X142.604 Y102.064 E20.92647
G1 X142.63 Y102.513 E20.94516
G1 X142.642 Y102.794 E20.95686
G1 X142.664 Y103.516 E20.98689
G1 X142.669 Y103.829 E20.9999
G1 X142.668 Y115.798 E21.49752
G1 X142.667 Y115.946 E21.50367
G1 X142.653 Y116.907 E21.54363
G1 X142.638 Y117.334 E21.56139
G1 X142.608 Y117.867 E21.58359
G1 X142.558 Y118.453 E21.60804
G1 X142.502 Y118.944 E21.62858
G1 X142.459 Y119.272 E21.64234
G1 X142.413 Y119.585 E21.65549
G1 X142.312 Y120.159 E21.67972
