;FLAVOR:Marlin
;TIME:11403
;Filament used: 12.8889m
;Layer height: 0.25
;MINX:79.352
;MINY:24.352
;MINZ:0.2
;MAXX:140.648
;MAXY:195.648
;MAXZ:11.95
;Generated with Cura_SteamEngine 4.4.1
M140 S110
M105
M190 S110
M104 S245
M105
M109 S245
M82 ;absolute extrusion mode
M201 X500.00 Y500.00 Z100.00 E5000.00 ;Setup machine max acceleration
M203 X500.00 Y500.00 Z10.00 E50.00 ;Setup machine max feedrate
M204 P500.00 R1000.00 T500.00 ;Setup Print/Retract/Travel acceleration
M205 X8.00 Y8.00 Z0.40 E5.00 ;Setup Jerk
M220 S100 ;Reset Feedrate
M221 S100 ;Reset Flowrate

G28 ;Home

G92 E0 ;Reset Extruder
G1 Z2.0 F3000 ;Move Z Axis up
G1 X10.1 Y20 Z0.28 F5000.0 ;Move to start position
G1 X10.1 Y200.0 Z0.28 F1500.0 E15 ;Draw the first line
G1 X10.4 Y200.0 Z0.28 F5000.0 ;Move to side a little
G1 X10.4 Y20 Z0.28 F1500.0 E30 ;Draw the second line
G92 E0 ;Reset Extruder
G1 Z2.0 F3000 ;Move Z Axis up

G92 E0
G92 E0
G1 F1500 E-6.5
;LAYER_COUNT:48
;LAYER:0
M107
G0 F6000 X82.677 Y41.11 Z0.2
;TYPE:SKIRT
G1 F1500 E0
G1 F1200 X83.029 Y40.443 E0.03136
G1 X83.646 Y39.363 E0.08307
G1 X83.827 Y39.057 E0.09785
G1 X84.177 Y38.487 E0.12566
G1 X84.594 Y37.856 E0.1571
G1 X85.314 Y36.843 E0.20877
G1 X85.521 Y36.562 E0.22328
G1 X85.923 Y36.032 E0.25094
G1 X86.4 Y35.446 E0.28235
G1 X87.205 Y34.521 E0.33333
G1 X87.446 Y34.252 E0.34835
G1 X87.9 Y33.763 E0.37609
G1 X88.41 Y33.248 E0.40622
G1 X89.315 Y32.391 E0.45804
G1 X89.584 Y32.144 E0.47323
G1 X90.071 Y31.712 E0.50029
G1 X90.644 Y31.237 E0.53123
G1 X91.636 Y30.468 E0.58342
G1 X91.951 Y30.233 E0.59976
G1 X92.499 Y29.838 E0.62784
G1 X93.087 Y29.441 E0.65734
G1 X94.087 Y28.812 E0.70645
G1 X94.393 Y28.626 E0.72134
G1 X94.996 Y28.273 E0.75039
G1 X95.652 Y27.918 E0.7814
G1 X96.781 Y27.354 E0.83387
G1 X97.13 Y27.187 E0.84996
G1 X97.904 Y26.833 E0.88534
G1 X98.486 Y26.587 E0.91161
G1 X98.798 Y26.465 E0.92554
G1 X99.106 Y26.349 E0.93922
G1 X99.914 Y26.06 E0.9749
G1 X100.076 Y26.004 E0.98203
G1 X100.581 Y25.832 E1.00421
G1 X101.242 Y25.629 E1.03295
G1 X102.358 Y25.324 E1.08105
G1 X102.607 Y25.259 E1.09175
G1 X102.832 Y25.203 E1.10139
G1 X102.969 Y25.17 E1.10725
G1 X103.61 Y25.019 E1.13463
G1 X104.183 Y24.899 E1.15897
G1 X104.525 Y24.837 E1.17342
G1 X104.896 Y24.777 E1.18904
G1 X105.719 Y24.656 E1.22363
G1 X105.869 Y24.635 E1.22993
G1 X106.462 Y24.556 E1.2548
G1 X107.207 Y24.481 E1.28593
G1 X108.6 Y24.389 E1.34397
G1 X108.932 Y24.372 E1.35779
G1 X109.399 Y24.355 E1.37722
G1 X110.125 Y24.352 E1.4074
G1 X111.331 Y24.386 E1.45756
G1 X111.676 Y24.402 E1.47192
G1 X112.388 Y24.444 E1.50157
G1 X113.147 Y24.514 E1.53326
G1 X114.349 Y24.667 E1.58364
G1 X114.69 Y24.716 E1.59796
G1 X115.535 Y24.85 E1.63353
G1 X116.166 Y24.968 E1.66022
G1 X116.506 Y25.042 E1.67469
G1 X116.863 Y25.126 E1.68993
G1 X117.716 Y25.341 E1.72651
G1 X117.843 Y25.374 E1.73196
G1 X118.342 Y25.506 E1.75342
G1 X119.039 Y25.715 E1.78367
G1 X120.197 Y26.103 E1.83445
G1 X120.525 Y26.218 E1.8489
G1 X121.339 Y26.519 E1.88498
G1 X121.979 Y26.779 E1.9137
G1 X122.294 Y26.918 E1.92802
G1 X122.569 Y27.043 E1.94058
G1 X123.331 Y27.404 E1.97563
G1 X123.449 Y27.461 E1.98108
G1 X123.914 Y27.688 E2.00259
G1 X124.565 Y28.033 E2.03322
G1 X125.64 Y28.648 E2.08471
G1 X125.945 Y28.828 E2.09944
G1 X126.521 Y29.182 E2.12755
G1 X127.143 Y29.594 E2.15856
G1 X128.136 Y30.299 E2.2092
G1 X128.423 Y30.509 E2.22398
G1 X128.97 Y30.924 E2.25253
G1 X129.555 Y31.401 E2.28391
G1 X130.48 Y32.206 E2.33489
G1 X130.749 Y32.447 E2.3499
G1 X131.238 Y32.901 E2.37765
G1 X131.753 Y33.411 E2.40778
G1 X132.61 Y34.316 E2.4596
G1 X132.857 Y34.585 E2.47478
G1 X133.289 Y35.072 E2.50185
G1 X133.764 Y35.645 E2.53279
G1 X134.533 Y36.637 E2.58497
G1 X134.767 Y36.949 E2.60119
G1 X135.155 Y37.487 E2.62877
G1 X135.555 Y38.082 E2.65857
G1 X136.213 Y39.129 E2.70998
G1 X136.403 Y39.442 E2.72521
G1 X136.737 Y40.014 E2.75275
G1 X137.086 Y40.66 E2.78327
G1 X137.635 Y41.759 E2.83435
G1 X137.8 Y42.103 E2.85021
G1 X138.088 Y42.732 E2.87897
G1 X138.368 Y43.399 E2.90905
G1 X138.791 Y44.506 E2.95832
G1 X138.916 Y44.85 E2.97353
G1 X139.147 Y45.519 E3.00296
G1 X139.365 Y46.226 E3.03372
G1 X139.689 Y47.412 E3.08483
G1 X139.778 Y47.758 E3.09968
G1 X139.936 Y48.418 E3.1279
G1 X140.088 Y49.166 E3.15963
G1 X140.29 Y50.364 E3.21014
G1 X140.343 Y50.709 E3.22466
G1 X140.438 Y51.403 E3.25378
G1 X140.515 Y52.151 E3.28504
G1 X140.599 Y53.363 E3.33555
G1 X140.617 Y53.695 E3.34937
G1 X140.643 Y54.351 E3.37667
G1 X140.648 Y55.113 E3.40835
G1 X140.612 Y56.393 E3.46159
G1 X140.594 Y56.779 E3.47765
G1 X140.553 Y57.435 E3.50498
G1 X140.486 Y58.148 E3.53475
G1 X140.334 Y59.347 E3.585
G1 X140.283 Y59.702 E3.59991
G1 X140.175 Y60.38 E3.62845
G1 X140.031 Y61.123 E3.65992
G1 X139.528 Y63.318 E3.75354
G1 X139.516 Y63.369 E3.75572
G1 X139.252 Y64.498 E3.80392
G1 X138.742 Y66.967 E3.90874
G1 X138.313 Y69.409 E4.01182
G1 X137.945 Y71.899 E4.11647
G1 X137.651 Y74.376 E4.22017
G1 X137.426 Y76.881 E4.32474
G1 X137.271 Y79.396 E4.4295
G1 X137.186 Y81.926 E4.53474
G1 X137.169 Y83.712 E4.609
G1 X137.169 Y136.288 E6.79486
G1 X137.206 Y138.904 E6.90363
G1 X137.312 Y141.409 E7.00787
G1 X137.491 Y143.93 E7.11294
G1 X137.736 Y146.408 E7.21647
G1 X138.054 Y148.891 E7.32054
G1 X138.45 Y151.411 E7.4266
G1 X138.902 Y153.84 E7.52932
G1 X139.439 Y156.335 E7.63542
G1 X139.938 Y158.432 E7.72504
G1 X140.091 Y159.187 E7.75707
G1 X140.324 Y160.584 E7.81595
G1 X140.376 Y160.929 E7.83045
G1 X140.438 Y161.388 E7.84971
G1 X140.512 Y162.112 E7.87997
G1 X140.6 Y163.375 E7.9326
G1 X140.618 Y163.717 E7.94684
G1 X140.643 Y164.356 E7.97343
G1 X140.647 Y165.114 E8.00494
G1 X140.611 Y166.386 E8.05785
G1 X140.595 Y166.756 E8.07325
G1 X140.555 Y167.409 E8.10045
G1 X140.487 Y168.137 E8.13084
G1 X140.332 Y169.359 E8.18206
G1 X140.282 Y169.704 E8.19655
G1 X140.179 Y170.354 E8.22391
G1 X140.035 Y171.102 E8.25558
G1 X139.758 Y172.313 E8.30723
G1 X139.673 Y172.658 E8.322
G1 X139.502 Y173.31 E8.35002
G1 X139.292 Y174.016 E8.38065
G1 X138.91 Y175.161 E8.43083
G1 X138.792 Y175.495 E8.44556
G1 X138.554 Y176.14 E8.47414
G1 X138.267 Y176.845 E8.50579
G1 X137.755 Y177.988 E8.55786
G1 X137.608 Y178.303 E8.57231
G1 X137.323 Y178.89 E8.59944
G1 X136.971 Y179.557 E8.63079
G1 X136.354 Y180.637 E8.6825
G1 X136.173 Y180.943 E8.69729
G1 X135.823 Y181.513 E8.72509
G1 X135.406 Y182.144 E8.75654
G1 X134.686 Y183.157 E8.80821
G1 X134.479 Y183.438 E8.82272
G1 X134.077 Y183.968 E8.85038
G1 X133.6 Y184.554 E8.88179
G1 X132.795 Y185.479 E8.93277
G1 X132.554 Y185.748 E8.94779
G1 X132.1 Y186.237 E8.97553
G1 X131.59 Y186.752 E9.00566
G1 X130.685 Y187.609 E9.05748
G1 X130.416 Y187.856 E9.07266
G1 X129.929 Y188.288 E9.09973
G1 X129.356 Y188.763 E9.13067
G1 X128.364 Y189.532 E9.18285
G1 X128.049 Y189.767 E9.19919
G1 X127.501 Y190.162 E9.22728
G1 X126.913 Y190.559 E9.25678
G1 X125.913 Y191.188 E9.30589
G1 X125.607 Y191.374 E9.32078
G1 X125.004 Y191.727 E9.34983
G1 X124.348 Y192.082 E9.38084
G1 X123.219 Y192.646 E9.43331
G1 X122.87 Y192.813 E9.44939
G1 X122.096 Y193.167 E9.48478
G1 X121.514 Y193.413 E9.51105
G1 X121.202 Y193.535 E9.52498
G1 X120.894 Y193.651 E9.53866
G1 X120.086 Y193.94 E9.57434
G1 X119.924 Y193.996 E9.58146
G1 X119.419 Y194.168 E9.60364
G1 X118.758 Y194.371 E9.63239
G1 X117.642 Y194.676 E9.68049
G1 X117.393 Y194.741 E9.69119
G1 X117.168 Y194.797 E9.70083
G1 X117.031 Y194.83 E9.70669
G1 X116.39 Y194.981 E9.73407
G1 X115.817 Y195.101 E9.75841
G1 X115.475 Y195.163 E9.77286
G1 X115.104 Y195.223 E9.78848
G1 X114.281 Y195.344 E9.82307
G1 X114.131 Y195.365 E9.82936
G1 X113.538 Y195.444 E9.85423
G1 X112.793 Y195.519 E9.88536
G1 X111.4 Y195.611 E9.94341
G1 X111.068 Y195.628 E9.95723
G1 X110.601 Y195.645 E9.97665
G1 X109.875 Y195.648 E10.00684
G1 X108.669 Y195.614 E10.057
G1 X108.324 Y195.598 E10.07136
G1 X107.612 Y195.556 E10.10101
G1 X106.853 Y195.486 E10.1327
G1 X105.651 Y195.333 E10.18308
G1 X105.31 Y195.284 E10.1974
G1 X104.465 Y195.15 E10.23297
G1 X103.834 Y195.032 E10.25966
G1 X103.494 Y194.958 E10.27412
G1 X103.14 Y194.875 E10.28924
G1 X102.286 Y194.66 E10.32585
G1 X102.151 Y194.624 E10.33166
G1 X101.653 Y194.492 E10.35308
G1 X100.961 Y194.285 E10.38311
G1 X99.803 Y193.897 E10.43389
G1 X99.472 Y193.781 E10.44847
G1 X98.656 Y193.479 E10.48464
G1 X98.018 Y193.22 E10.51327
G1 X97.694 Y193.077 E10.52799
G1 X97.423 Y192.953 E10.54038
G1 X96.669 Y192.596 E10.57507
G1 X96.539 Y192.533 E10.58107
G1 X96.075 Y192.306 E10.60255
G1 X95.432 Y191.965 E10.63281
G1 X94.359 Y191.351 E10.68421
G1 X94.055 Y191.172 E10.69887
G1 X93.479 Y190.818 E10.72698
G1 X92.857 Y190.406 E10.758
G1 X91.864 Y189.701 E10.80863
G1 X91.575 Y189.489 E10.82353
G1 X91.027 Y189.073 E10.85214
G1 X90.444 Y188.599 E10.88338
G1 X89.52 Y187.795 E10.9343
G1 X89.251 Y187.553 E10.94934
G1 X88.762 Y187.099 E10.97708
G1 X88.247 Y186.589 E11.00722
G1 X87.39 Y185.684 E11.05903
G1 X87.143 Y185.415 E11.07422
G1 X86.711 Y184.928 E11.10128
G1 X86.236 Y184.355 E11.13223
G1 X85.467 Y183.363 E11.18441
G1 X85.236 Y183.054 E11.20045
G1 X84.847 Y182.515 E11.22808
G1 X84.442 Y181.915 E11.25818
G1 X83.785 Y180.869 E11.30954
G1 X83.597 Y180.558 E11.32464
G1 X83.256 Y179.974 E11.35276
G1 X82.903 Y179.321 E11.38362
G1 X82.361 Y178.234 E11.43412
G1 X82.201 Y177.899 E11.44955
G1 X81.912 Y177.268 E11.47841
G1 X81.63 Y176.597 E11.50867
G1 X81.208 Y175.492 E11.55785
G1 X81.084 Y175.15 E11.57297
G1 X80.853 Y174.481 E11.6024
G1 X80.635 Y173.774 E11.63316
G1 X80.311 Y172.588 E11.68427
G1 X80.222 Y172.243 E11.69908
G1 X80.063 Y171.579 E11.72747
G1 X79.91 Y170.827 E11.75937
G1 X79.709 Y169.633 E11.80971
G1 X79.656 Y169.286 E11.82431
G1 X79.561 Y168.59 E11.85351
G1 X79.485 Y167.848 E11.88452
G1 X79.401 Y166.638 E11.93495
G1 X79.383 Y166.305 E11.94881
G1 X79.357 Y165.649 E11.97611
G1 X79.352 Y164.887 E12.00779
G1 X79.388 Y163.607 E12.06103
G1 X79.406 Y163.221 E12.07709
G1 X79.447 Y162.565 E12.10442
G1 X79.514 Y161.852 E12.13419
G1 X79.666 Y160.653 E12.18444
G1 X79.717 Y160.298 E12.19935
G1 X79.825 Y159.62 E12.22789
G1 X79.969 Y158.877 E12.25936
G1 X80.472 Y156.682 E12.35298
G1 X80.484 Y156.631 E12.35516
G1 X80.748 Y155.502 E12.40337
G1 X81.258 Y153.033 E12.50818
G1 X81.687 Y150.591 E12.61126
G1 X82.055 Y148.101 E12.71591
G1 X82.349 Y145.624 E12.81961
G1 X82.574 Y143.119 E12.92418
G1 X82.729 Y140.604 E13.02894
G1 X82.814 Y138.074 E13.13418
G1 X82.831 Y136.288 E13.20844
G1 X82.831 Y83.694 E15.39504
G1 X82.794 Y81.096 E15.50307
G1 X82.688 Y78.591 E15.60731
G1 X82.509 Y76.073 E15.71226
G1 X82.263 Y73.589 E15.81604
G1 X81.946 Y71.114 E15.91977
G1 X81.553 Y68.612 E16.02507
G1 X81.094 Y66.139 E16.12964
G1 X80.559 Y63.656 E16.23524
G1 X80.062 Y61.568 E16.32448
G1 X79.909 Y60.813 E16.3565
G1 X79.676 Y59.416 E16.41539
G1 X79.623 Y59.061 E16.43031
G1 X79.561 Y58.599 E16.44969
G1 X79.488 Y57.887 E16.47945
G1 X79.4 Y56.627 E16.53196
G1 X79.382 Y56.283 E16.54628
G1 X79.357 Y55.644 E16.57287
G1 X79.353 Y54.886 E16.60438
G1 X79.389 Y53.614 E16.65729
G1 X79.406 Y53.233 E16.67314
G1 X79.447 Y52.574 E16.70059
G1 X79.514 Y51.86 E16.73041
G1 X79.668 Y50.644 E16.78137
G1 X79.718 Y50.296 E16.79598
G1 X79.821 Y49.646 E16.82335
G1 X79.965 Y48.898 E16.85501
G1 X80.242 Y47.687 E16.90666
G1 X80.327 Y47.342 E16.92143
G1 X80.498 Y46.69 E16.94946
G1 X80.708 Y45.984 E16.98008
G1 X81.09 Y44.839 E17.03026
G1 X81.208 Y44.505 E17.04499
G1 X81.446 Y43.86 E17.07357
G1 X81.733 Y43.155 E17.10522
G1 X82.245 Y42.012 E17.15729
G1 X82.392 Y41.697 E17.17174
G1 X82.677 Y41.11 E17.19887
G0 F6000 X83.127 Y41.329
G1 F1200 X83.463 Y40.691 E17.22885
G1 X84.08 Y39.611 E17.28056
G1 X84.253 Y39.319 E17.29467
G1 X84.603 Y38.749 E17.32248
G1 X85.002 Y38.146 E17.35254
G1 X85.722 Y37.133 E17.40421
G1 X85.919 Y36.865 E17.41804
G1 X86.321 Y36.335 E17.4457
G1 X86.777 Y35.774 E17.47575
G1 X87.582 Y34.849 E17.52674
G1 X87.813 Y34.592 E17.5411
G1 X88.267 Y34.103 E17.56884
G1 X88.753 Y33.611 E17.5976
G1 X89.658 Y32.754 E17.64941
G1 X89.916 Y32.518 E17.66395
G1 X90.403 Y32.086 E17.69102
G1 X90.951 Y31.632 E17.7206
G1 X91.943 Y30.863 E17.77279
G1 X92.243 Y30.638 E17.78838
G1 X92.791 Y30.243 E17.81646
G1 X93.353 Y29.864 E17.84464
G1 X94.353 Y29.235 E17.89376
G1 X94.646 Y29.058 E17.90799
G1 X95.249 Y28.705 E17.93704
G1 X95.876 Y28.365 E17.96669
G1 X97.005 Y27.801 E18.01916
G1 X97.338 Y27.642 E18.03451
G1 X98.112 Y27.288 E18.06989
G1 X98.668 Y27.052 E18.095
G1 X98.98 Y26.93 E18.10893
G1 X99.275 Y26.82 E18.12202
G1 X100.083 Y26.531 E18.1577
G1 X100.237 Y26.477 E18.16448
G1 X100.742 Y26.305 E18.18666
G1 X101.374 Y26.111 E18.21415
G1 X102.49 Y25.806 E18.26225
G1 X102.728 Y25.744 E18.27247
G1 X102.953 Y25.688 E18.28211
G1 X103.084 Y25.656 E18.28772
G1 X103.725 Y25.505 E18.3151
G1 X104.272 Y25.391 E18.33833
G1 X104.614 Y25.329 E18.35278
G1 X104.968 Y25.271 E18.36769
G1 X105.791 Y25.15 E18.40228
G1 X105.935 Y25.13 E18.40832
G1 X106.528 Y25.051 E18.43319
G1 X107.24 Y24.98 E18.46294
G1 X108.633 Y24.888 E18.52098
G1 X108.95 Y24.872 E18.53418
G1 X109.417 Y24.855 E18.55361
G1 X110.111 Y24.852 E18.58246
G1 X111.317 Y24.886 E18.63262
G1 X111.647 Y24.901 E18.64635
G1 X112.359 Y24.943 E18.67601
G1 X113.083 Y25.01 E18.70623
G1 X114.285 Y25.163 E18.75661
G1 X114.612 Y25.21 E18.77035
G1 X115.457 Y25.344 E18.80592
G1 X116.059 Y25.457 E18.83138
G1 X116.399 Y25.531 E18.84585
G1 X116.74 Y25.611 E18.86041
G1 X117.593 Y25.826 E18.89698
G1 X117.715 Y25.857 E18.90222
G1 X118.214 Y25.989 E18.92368
G1 X118.88 Y26.189 E18.95259
G1 X120.038 Y26.577 E19.00336
G1 X120.351 Y26.687 E19.01715
G1 X121.165 Y26.988 E19.05324
G1 X121.777 Y27.236 E19.08069
G1 X122.092 Y27.375 E19.095
G1 X122.354 Y27.495 E19.10698
G1 X123.116 Y27.856 E19.14204
G1 X123.23 Y27.911 E19.1473
G1 X123.695 Y28.138 E19.16882
G1 X124.317 Y28.467 E19.19807
G1 X125.392 Y29.082 E19.24956
G1 X125.683 Y29.254 E19.26361
G1 X126.259 Y29.608 E19.29172
G1 X126.853 Y30.002 E19.32136
G1 X127.846 Y30.707 E19.37199
G1 X128.12 Y30.908 E19.38612
G1 X128.667 Y31.323 E19.41466
G1 X129.227 Y31.778 E19.44466
G1 X130.152 Y32.583 E19.49564
G1 X130.409 Y32.814 E19.51001
G1 X130.898 Y33.268 E19.53775
G1 X131.39 Y33.754 E19.5665
G1 X132.247 Y34.659 E19.61832
G1 X132.483 Y34.917 E19.63286
G1 X132.915 Y35.404 E19.65992
G1 X133.369 Y35.952 E19.68951
G1 X134.138 Y36.944 E19.74169
G1 X134.361 Y37.242 E19.75717
G1 X134.749 Y37.78 E19.78474
G1 X135.132 Y38.348 E19.81323
G1 X135.79 Y39.395 E19.86464
G1 X135.971 Y39.694 E19.87917
G1 X136.305 Y40.266 E19.90671
G1 X136.639 Y40.883 E19.93588
G1 X137.188 Y41.982 E19.98695
G1 X137.345 Y42.311 E20.00211
G1 X137.633 Y42.94 E20.03087
G1 X137.901 Y43.578 E20.05964
G1 X138.324 Y44.685 E20.10891
G1 X138.443 Y45.013 E20.12341
G1 X138.674 Y45.682 E20.15284
G1 X138.883 Y46.358 E20.18226
G1 X139.207 Y47.544 E20.23337
G1 X139.292 Y47.874 E20.24754
G1 X139.45 Y48.534 E20.27575
G1 X139.595 Y49.25 E20.30613
G1 X139.797 Y50.448 E20.35664
G1 X139.848 Y50.777 E20.37048
G1 X139.943 Y51.471 E20.3996
G1 X140.016 Y52.186 E20.42948
G1 X140.1 Y53.398 E20.47999
G1 X140.118 Y53.715 E20.49319
G1 X140.144 Y54.371 E20.52049
G1 X140.148 Y55.099 E20.55075
G1 X140.112 Y56.379 E20.60399
G1 X140.095 Y56.748 E20.61935
G1 X140.054 Y57.404 E20.64667
G1 X139.99 Y58.085 E20.67511
G1 X139.838 Y59.284 E20.72536
G1 X139.789 Y59.623 E20.7396
G1 X139.681 Y60.301 E20.76814
G1 X139.543 Y61.011 E20.79821
G1 X139.04 Y63.206 E20.89184
G1 X139.029 Y63.255 E20.89392
G1 X138.771 Y64.359 E20.94106
G1 X138.249 Y66.883 E21.04822
G1 X137.821 Y69.32 E21.15109
G1 X137.45 Y71.837 E21.25686
G1 X137.152 Y74.34 E21.36166
G1 X136.927 Y76.844 E21.46618
G1 X136.771 Y79.384 E21.57198
G1 X136.686 Y81.904 E21.67681
G1 X136.669 Y83.707 E21.75178
G1 X136.669 Y136.293 E23.93805
G1 X136.706 Y138.932 E24.04777
G1 X136.812 Y141.429 E24.15168
G1 X136.99 Y143.943 E24.25646
G1 X137.242 Y146.484 E24.36262
G1 X137.559 Y148.96 E24.4664
G1 X137.954 Y151.474 E24.57221
G1 X138.417 Y153.965 E24.67754
G1 X138.946 Y156.423 E24.78208
G1 X139.452 Y158.548 E24.87289
G1 X139.598 Y159.269 E24.90348
G1 X139.831 Y160.666 E24.96236
G1 X139.88 Y160.996 E24.97623
G1 X139.942 Y161.455 E24.99549
G1 X140.013 Y162.147 E25.02441
G1 X140.101 Y163.41 E25.07704
G1 X140.119 Y163.737 E25.09066
G1 X140.144 Y164.376 E25.11725
G1 X140.148 Y165.1 E25.14735
G1 X140.112 Y166.372 E25.20025
