;FLAVOR:Marlin
;TIME:16289
;Filament used: 17.3423m
;Layer height: 0.25
;MINX:53.762
;MINY:53.762
;MINZ:0.2
;MAXX:166.238
;MAXY:166.238
;MAXZ:63.45
;Generated with Cura_SteamEngine 4.4.1
M140 S110
M105
M190 S110
M104 S245
M105
M109 S245
M82 ;absolute extrusion mode
M201 X500.00 Y500.00 Z100.00 E5000.00 ;Setup machine max acceleration
M203 X500.00 Y500.00 Z10.00 E50.00 ;Setup machine max feedrate
M204 P500.00 R1000.00 T500.00 ;Setup Print/Retract/Travel acceleration
M205 X8.00 Y8.00 Z0.40 E5.00 ;Setup Jerk
M220 S100 ;Reset Feedrate
M221 S100 ;Reset Flowrate

G28 ;Home

G92 E0 ;Reset Extruder
G1 Z2.0 F3000 ;Move Z Axis up
G1 X10.1 Y20 Z0.28 F5000.0 ;Move to start position
G1 X10.1 Y200.0 Z0.28 F1500.0 E15 ;Draw the first line
G1 X10.4 Y200.0 Z0.28 F5000.0 ;Move to side a little
G1 X10.4 Y20 Z0.28 F1500.0 E30 ;Draw the second line
G92 E0 ;Reset Extruder
G1 Z2.0 F3000 ;Move Z Axis up

G92 E0
G92 E0
G1 F1500 E-6.5
;LAYER_COUNT:254
;LAYER:0
M107
G0 F6000 X69.832 Y70.649 Z0.2
;TYPE:SKIRT
G1 F1500 E0
G1 F1200 X70.759 Y69.722 E0.0545
G1 X70.879 Y69.604 E0.0615
G1 X71.218 Y69.275 E0.08114
G1 X71.475 Y69.034 E0.09579
G1 X72.356 Y68.231 E0.14535
G1 X72.494 Y68.107 E0.15306
G1 X73.365 Y67.339 E0.20134
G1 X73.496 Y67.225 E0.20856
G1 X73.888 Y66.89 E0.23
G1 X74.144 Y66.677 E0.24384
G1 X74.948 Y66.03 E0.28675
G1 X75.108 Y65.904 E0.29522
G1 X76.123 Y65.117 E0.34861
G1 X76.274 Y65.002 E0.35651
G1 X76.624 Y64.74 E0.37468
G1 X76.889 Y64.548 E0.38829
G1 X77.947 Y63.803 E0.44208
G1 X78.099 Y63.697 E0.44979
G1 X79.014 Y63.075 E0.49579
G1 X79.142 Y62.99 E0.50218
G1 X79.545 Y62.724 E0.52225
G1 X79.85 Y62.529 E0.5373
G1 X80.769 Y61.964 E0.58215
G1 X80.931 Y61.867 E0.59
G1 X81.96 Y61.258 E0.63971
G1 X82.113 Y61.169 E0.64707
G1 X82.614 Y60.883 E0.67106
G1 X82.906 Y60.722 E0.68492
G1 X83.808 Y60.242 E0.7274
G1 X83.987 Y60.148 E0.73581
G1 X85.114 Y59.574 E0.78839
G1 X85.245 Y59.509 E0.79447
G1 X85.677 Y59.296 E0.81449
G1 X86.023 Y59.132 E0.83041
G1 X87.186 Y58.607 E0.88346
G1 X87.342 Y58.539 E0.89054
G1 X88.355 Y58.1 E0.93644
G1 X88.503 Y58.037 E0.94313
G1 X88.952 Y57.85 E0.96335
G1 X89.288 Y57.716 E0.97839
G1 X90.261 Y57.347 E1.02165
G1 X90.437 Y57.282 E1.02945
G1 X91.6 Y56.863 E1.08084
G1 X91.76 Y56.807 E1.08789
G1 X92.226 Y56.647 E1.10838
G1 X92.569 Y56.535 E1.12338
G1 X93.849 Y56.141 E1.17906
G1 X94.021 Y56.09 E1.18652
G1 X94.978 Y55.812 E1.22795
G1 X95.153 Y55.762 E1.23552
G1 X95.706 Y55.611 E1.25935
G1 X96.024 Y55.529 E1.273
G1 X97.016 Y55.289 E1.31543
G1 X97.204 Y55.246 E1.32345
G1 X98.406 Y54.977 E1.37466
G1 X98.538 Y54.948 E1.38028
G1 X99.092 Y54.831 E1.40382
G1 X99.469 Y54.758 E1.41979
G1 X100.476 Y54.581 E1.46229
G1 X100.67 Y54.549 E1.47047
G1 X101.937 Y54.349 E1.5238
G1 X102.08 Y54.327 E1.52981
G1 X102.55 Y54.259 E1.54956
G1 X102.927 Y54.211 E1.56536
G1 X104.132 Y54.078 E1.61576
G1 X104.308 Y54.06 E1.62311
G1 X105.409 Y53.956 E1.66909
G1 X105.541 Y53.944 E1.6746
G1 X106.001 Y53.906 E1.69379
G1 X106.398 Y53.88 E1.71033
G1 X107.801 Y53.814 E1.76873
G1 X107.977 Y53.808 E1.77605
G1 X108.901 Y53.779 E1.81448
G1 X109.055 Y53.775 E1.82089
G1 X109.733 Y53.763 E1.84908
G1 X110.072 Y53.762 E1.86317
G1 X110.796 Y53.771 E1.89328
G1 X111.012 Y53.776 E1.90226
G1 X112.497 Y53.823 E1.96403
G1 X112.673 Y53.83 E1.97135
G1 X113.243 Y53.857 E1.99508
G1 X113.556 Y53.876 E2.00811
G1 X114.392 Y53.939 E2.04297
G1 X114.61 Y53.957 E2.05206
G1 X116.011 Y54.09 E2.11057
G1 X116.153 Y54.105 E2.11651
G1 X116.682 Y54.162 E2.13863
G1 X117.05 Y54.207 E2.15404
G1 X118.07 Y54.351 E2.19687
G1 X118.252 Y54.379 E2.20453
G1 X119.493 Y54.575 E2.25676
G1 X119.666 Y54.603 E2.26405
G1 X120.172 Y54.691 E2.2854
G1 X120.509 Y54.755 E2.29966
G1 X121.594 Y54.978 E2.34571
G1 X121.784 Y55.019 E2.35379
G1 X122.893 Y55.267 E2.40104
G1 X123.055 Y55.305 E2.40796
G1 X123.774 Y55.477 E2.43869
G1 X124.072 Y55.552 E2.45147
G1 X124.728 Y55.728 E2.47971
G1 X124.953 Y55.791 E2.48942
G1 X126.405 Y56.213 E2.55229
G1 X126.54 Y56.253 E2.55814
G1 X127.01 Y56.396 E2.57856
G1 X127.37 Y56.512 E2.59429
G1 X128.36 Y56.85 E2.63778
G1 X128.536 Y56.912 E2.64554
G1 X129.697 Y57.33 E2.69684
G1 X129.844 Y57.384 E2.70335
G1 X130.408 Y57.596 E2.7284
G1 X130.74 Y57.727 E2.74324
G1 X131.569 Y58.069 E2.78052
G1 X131.745 Y58.144 E2.78848
G1 X132.998 Y58.686 E2.84524
G1 X133.157 Y58.755 E2.85244
G1 X133.636 Y58.971 E2.87429
G1 X133.943 Y59.116 E2.8884
G1 X134.839 Y59.553 E2.92985
G1 X135.009 Y59.637 E2.93773
G1 X136.196 Y60.241 E2.99311
G1 X136.353 Y60.323 E3.00047
G1 X136.769 Y60.543 E3.02003
G1 X137.069 Y60.707 E3.03425
G1 X137.998 Y61.235 E3.07867
G1 X138.162 Y61.33 E3.08655
G1 X139.208 Y61.948 E3.13706
G1 X139.351 Y62.035 E3.14402
G1 X139.909 Y62.376 E3.17121
G1 X140.185 Y62.549 E3.18475
G1 X140.805 Y62.953 E3.21552
G1 X140.989 Y63.076 E3.22472
G1 X142.183 Y63.888 E3.28475
G1 X142.318 Y63.981 E3.29157
G1 X142.777 Y64.303 E3.31488
G1 X143.05 Y64.501 E3.3289
G1 X143.869 Y65.113 E3.37141
G1 X144.032 Y65.237 E3.37992
G1 X145.001 Y65.989 E3.43092
G1 X145.128 Y66.089 E3.43764
G1 X145.631 Y66.491 E3.46441
G1 X145.887 Y66.702 E3.4782
G1 X146.509 Y67.23 E3.51212
G1 X146.665 Y67.365 E3.5207
G1 X147.747 Y68.318 E3.58064
G1 X147.881 Y68.438 E3.58812
G1 X148.246 Y68.77 E3.60864
G1 X148.489 Y68.998 E3.62249
G1 X149.209 Y69.693 E3.66409
G1 X149.351 Y69.832 E3.67235
G1 X150.278 Y70.759 E3.72686
G1 X150.396 Y70.879 E3.73386
G1 X150.725 Y71.218 E3.7535
G1 X150.966 Y71.475 E3.76814
G1 X151.769 Y72.356 E3.8177
G1 X151.893 Y72.494 E3.82542
G1 X152.661 Y73.365 E3.8737
G1 X152.775 Y73.496 E3.88091
G1 X153.11 Y73.888 E3.90235
G1 X153.323 Y74.144 E3.9162
G1 X153.97 Y74.948 E3.9591
G1 X154.096 Y75.108 E3.96757
G1 X154.883 Y76.123 E4.02097
G1 X154.998 Y76.274 E4.02886
G1 X155.26 Y76.624 E4.04704
G1 X155.453 Y76.89 E4.0607
G1 X156.214 Y77.971 E4.11566
G1 X156.319 Y78.122 E4.12331
G1 X156.907 Y78.987 E4.16679
G1 X156.99 Y79.112 E4.17303
G1 X157.274 Y79.542 E4.19446
G1 X157.471 Y79.85 E4.20966
G1 X158.036 Y80.769 E4.25451
G1 X158.133 Y80.931 E4.26236
G1 X158.742 Y81.96 E4.31207
G1 X158.831 Y82.113 E4.31943
G1 X159.117 Y82.614 E4.34341
G1 X159.278 Y82.906 E4.35728
G1 X159.758 Y83.808 E4.39976
G1 X159.852 Y83.987 E4.40816
G1 X160.426 Y85.114 E4.46074
G1 X160.487 Y85.236 E4.46641
G1 X160.7 Y85.667 E4.4864
G1 X160.869 Y86.025 E4.50286
G1 X161.385 Y87.169 E4.55504
G1 X161.451 Y87.319 E4.56185
G1 X161.899 Y88.352 E4.60866
G1 X161.963 Y88.503 E4.61548
G1 X162.15 Y88.952 E4.6357
G1 X162.284 Y89.288 E4.65074
G1 X162.653 Y90.261 E4.69401
G1 X162.719 Y90.439 E4.7019
G1 X163.128 Y91.575 E4.7521
G1 X163.175 Y91.71 E4.75804
G1 X163.342 Y92.193 E4.77929
G1 X163.462 Y92.559 E4.7953
G1 X163.853 Y93.829 E4.85055
G1 X163.904 Y93.999 E4.85792
G1 X164.188 Y94.976 E4.90023
G1 X164.236 Y95.148 E4.90765
G1 X164.387 Y95.7 E4.93144
G1 X164.471 Y96.025 E4.9454
G1 X164.711 Y97.018 E4.98787
G1 X164.754 Y97.204 E4.99581
G1 X165.023 Y98.406 E5.04702
G1 X165.052 Y98.538 E5.05264
G1 X165.169 Y99.092 E5.07618
G1 X165.242 Y99.469 E5.09214
G1 X165.419 Y100.476 E5.13465
G1 X165.451 Y100.67 E5.14282
G1 X165.651 Y101.937 E5.19615
G1 X165.673 Y102.077 E5.20204
G1 X165.741 Y102.546 E5.22175
G1 X165.789 Y102.927 E5.23771
G1 X165.919 Y104.106 E5.28703
G1 X165.936 Y104.273 E5.29401
G1 X166.046 Y105.429 E5.34228
G1 X166.061 Y105.596 E5.34925
G1 X166.095 Y106.02 E5.36694
G1 X166.118 Y106.386 E5.38219
G1 X166.183 Y107.757 E5.43925
G1 X166.191 Y107.941 E5.44691
G1 X166.222 Y108.94 E5.48846
G1 X166.225 Y109.078 E5.4942
G1 X166.237 Y109.719 E5.52085
G1 X166.238 Y110.069 E5.5354
G1 X166.229 Y110.795 E5.56559
G1 X166.224 Y111.012 E5.57461
G1 X166.177 Y112.495 E5.6363
G1 X166.171 Y112.655 E5.64296
G1 X166.146 Y113.2 E5.66564
G1 X166.126 Y113.529 E5.67934
G1 X166.061 Y114.392 E5.71532
G1 X166.043 Y114.603 E5.72413
G1 X165.912 Y115.992 E5.78213
G1 X165.896 Y116.156 E5.78898
G1 X165.837 Y116.697 E5.81161
G1 X165.793 Y117.05 E5.8264
G1 X165.649 Y118.07 E5.86923
G1 X165.621 Y118.252 E5.87688
G1 X165.425 Y119.493 E5.92912
G1 X165.397 Y119.666 E5.9364
G1 X165.309 Y120.172 E5.95775
G1 X165.245 Y120.509 E5.97202
G1 X165.022 Y121.594 E6.01807
G1 X164.982 Y121.777 E6.02586
G1 X164.743 Y122.849 E6.07152
G1 X164.704 Y123.02 E6.07881
G1 X164.523 Y123.776 E6.11113
G1 X164.448 Y124.072 E6.12382
G1 X164.272 Y124.728 E6.15206
G1 X164.209 Y124.953 E6.16178
G1 X163.787 Y126.405 E6.22464
G1 X163.747 Y126.54 E6.2305
G1 X163.604 Y127.01 E6.25092
G1 X163.488 Y127.37 E6.26665
G1 X163.15 Y128.36 E6.31014
G1 X163.088 Y128.536 E6.3179
G1 X162.67 Y129.697 E6.3692
G1 X162.617 Y129.84 E6.37554
G1 X162.406 Y130.402 E6.4005
G1 X162.275 Y130.736 E6.41541
G1 X161.939 Y131.551 E6.45206
G1 X161.865 Y131.727 E6.46
G1 X161.313 Y133.004 E6.51784
G1 X161.234 Y133.181 E6.5259
G1 X161.018 Y133.658 E6.54767
G1 X160.885 Y133.941 E6.56067
G1 X160.46 Y134.814 E6.60104
G1 X160.37 Y134.994 E6.6094
G1 X159.757 Y136.198 E6.66557
G1 X159.682 Y136.345 E6.67243
G1 X159.463 Y136.76 E6.69194
G1 X159.292 Y137.071 E6.7067
G1 X158.763 Y138.001 E6.75118
G1 X158.671 Y138.16 E6.75882
G1 X158.068 Y139.181 E6.80812
G1 X157.982 Y139.323 E6.81502
G1 X157.626 Y139.906 E6.84342
G1 X157.45 Y140.186 E6.85717
G1 X157.04 Y140.815 E6.88838
G1 X156.917 Y140.999 E6.89759
G1 X156.111 Y142.184 E6.95717
G1 X156.019 Y142.318 E6.96393
G1 X155.697 Y142.777 E6.98724
G1 X155.499 Y143.05 E7.00126
G1 X154.887 Y143.869 E7.04376
G1 X154.763 Y144.032 E7.05228
G1 X154.011 Y145.001 E7.10327
G1 X153.911 Y145.128 E7.10999
G1 X153.509 Y145.631 E7.13676
G1 X153.298 Y145.887 E7.15056
G1 X152.77 Y146.509 E7.18448
G1 X152.635 Y146.665 E7.19305
G1 X151.682 Y147.747 E7.253
G1 X151.564 Y147.879 E7.26036
G1 X151.234 Y148.242 E7.28076
G1 X151.004 Y148.488 E7.29476
G1 X150.307 Y149.21 E7.33648
G1 X150.168 Y149.351 E7.34471
G1 X149.241 Y150.278 E7.39922
G1 X149.121 Y150.396 E7.40621
G1 X148.782 Y150.725 E7.42585
G1 X148.525 Y150.966 E7.4405
G1 X147.644 Y151.769 E7.49006
G1 X147.506 Y151.893 E7.49777
G1 X146.635 Y152.661 E7.54605
G1 X146.504 Y152.775 E7.55327
G1 X146.112 Y153.11 E7.57471
G1 X145.856 Y153.323 E7.58856
G1 X145.052 Y153.97 E7.63146
G1 X144.892 Y154.096 E7.63993
G1 X143.877 Y154.883 E7.69333
G1 X143.726 Y154.998 E7.70122
G1 X143.376 Y155.26 E7.71939
G1 X143.111 Y155.452 E7.733
G1 X142.053 Y156.197 E7.7868
G1 X141.908 Y156.298 E7.79414
G1 X140.999 Y156.917 E7.83987
G1 X140.849 Y157.017 E7.84736
G1 X140.44 Y157.286 E7.86771
G1 X140.153 Y157.469 E7.88186
G1 X139.246 Y158.027 E7.92614
G1 X139.08 Y158.127 E7.93419
G1 X138.039 Y158.743 E7.98448
G1 X137.887 Y158.831 E7.99179
G1 X137.386 Y159.117 E8.01577
G1 X137.094 Y159.278 E8.02963
G1 X136.192 Y159.758 E8.07211
G1 X136.013 Y159.852 E8.08052
G1 X134.886 Y160.426 E8.1331
G1 X134.755 Y160.491 E8.13918
G1 X134.323 Y160.704 E8.15921
G1 X133.98 Y160.866 E8.17498
G1 X132.829 Y161.386 E8.22749
G1 X132.669 Y161.457 E8.23476
G1 X131.644 Y161.901 E8.28121
G1 X131.497 Y161.963 E8.28784
G1 X131.048 Y162.15 E8.30806
G1 X130.712 Y162.284 E8.3231
G1 X129.739 Y162.653 E8.36636
G1 X129.563 Y162.718 E8.37416
G1 X128.4 Y163.137 E8.42556
G1 X128.24 Y163.193 E8.43261
G1 X127.774 Y163.353 E8.45309
G1 X127.431 Y163.465 E8.46809
G1 X126.151 Y163.859 E8.52377
G1 X125.979 Y163.91 E8.53123
G1 X125.022 Y164.188 E8.57266
G1 X124.847 Y164.238 E8.58023
G1 X124.294 Y164.389 E8.60406
G1 X123.976 Y164.471 E8.61771
G1 X122.984 Y164.711 E8.66015
G1 X122.796 Y164.754 E8.66816
G1 X121.594 Y165.023 E8.71937
G1 X121.462 Y165.052 E8.72499
G1 X120.908 Y165.169 E8.74853
G1 X120.531 Y165.242 E8.7645
G1 X119.524 Y165.419 E8.80701
G1 X119.33 Y165.451 E8.81518
G1 X118.063 Y165.651 E8.86851
G1 X117.92 Y165.673 E8.87452
G1 X117.45 Y165.741 E8.89427
G1 X117.073 Y165.789 E8.91007
G1 X115.868 Y165.922 E8.96047
G1 X115.692 Y165.94 E8.96783
G1 X114.591 Y166.044 E9.0138
G1 X114.459 Y166.056 E9.01932
G1 X113.999 Y166.094 E9.0385
G1 X113.602 Y166.12 E9.05505
G1 X112.199 Y166.186 E9.11344
G1 X112.023 Y166.192 E9.12076
G1 X111.099 Y166.221 E9.1592
G1 X110.945 Y166.225 E9.1656
G1 X110.267 Y166.237 E9.19379
G1 X109.928 Y166.238 E9.20789
G1 X109.204 Y166.229 E9.23799
G1 X108.988 Y166.224 E9.24697
G1 X107.503 Y166.177 E9.30874
G1 X107.327 Y166.17 E9.31607
G1 X106.757 Y166.143 E9.33979
G1 X106.444 Y166.124 E9.35283
G1 X105.608 Y166.061 E9.38768
G1 X105.39 Y166.043 E9.39678
G1 X103.989 Y165.91 E9.45529
G1 X103.847 Y165.895 E9.46122
G1 X103.318 Y165.838 E9.48334
G1 X102.95 Y165.793 E9.49876
G1 X101.93 Y165.649 E9.54158
G1 X101.748 Y165.621 E9.54924
G1 X100.507 Y165.425 E9.60147
G1 X100.334 Y165.397 E9.60876
G1 X99.828 Y165.309 E9.63011
G1 X99.491 Y165.245 E9.64437
G1 X98.406 Y165.022 E9.69043
G1 X98.216 Y164.981 E9.69851
G1 X97.107 Y164.733 E9.74575
G1 X96.945 Y164.695 E9.75267
G1 X96.226 Y164.523 E9.78341
G1 X95.928 Y164.448 E9.79618
G1 X95.272 Y164.272 E9.82442
G1 X95.047 Y164.209 E9.83413
G1 X93.595 Y163.787 E9.897
G1 X93.46 Y163.747 E9.90285
G1 X92.99 Y163.604 E9.92328
G1 X92.63 Y163.488 E9.939
G1 X91.64 Y163.15 E9.98249
G1 X91.464 Y163.088 E9.99025
G1 X90.303 Y162.67 E10.04155
G1 X90.156 Y162.616 E10.04807
G1 X89.592 Y162.404 E10.07312
G1 X89.26 Y162.273 E10.08795
G1 X88.431 Y161.931 E10.12524
G1 X88.258 Y161.858 E10.13304
G1 X86.997 Y161.313 E10.19016
G1 X86.819 Y161.234 E10.19825
G1 X86.342 Y161.018 E10.22002
G1 X86.052 Y160.882 E10.23334
G1 X85.162 Y160.448 E10.27451
G1 X84.991 Y160.363 E10.28245
G1 X83.804 Y159.759 E10.33782
G1 X83.647 Y159.677 E10.34518
G1 X83.231 Y159.457 E10.36475
G1 X82.931 Y159.293 E10.37896
G1 X82.002 Y158.765 E10.42339
G1 X81.838 Y158.67 E10.43127
G1 X80.792 Y158.052 E10.48178
G1 X80.649 Y157.965 E10.48874
G1 X80.091 Y157.624 E10.51592
G1 X79.814 Y157.45 E10.52952
G1 X79.185 Y157.04 E10.56074
G1 X79.001 Y156.917 E10.56994
G1 X77.816 Y156.111 E10.62952
G1 X77.678 Y156.016 E10.63649
G1 X77.218 Y155.693 E10.65986
G1 X76.951 Y155.499 E10.67358
G1 X76.133 Y154.888 E10.71603
G1 X75.968 Y154.763 E10.72463
G1 X74.999 Y154.011 E10.77563
G1 X74.87 Y153.909 E10.78247
G1 X74.366 Y153.506 E10.80929
G1 X74.113 Y153.298 E10.82291
G1 X73.492 Y152.771 E10.85677
G1 X73.335 Y152.635 E10.86541
G1 X72.253 Y151.682 E10.92535
G1 X72.127 Y151.569 E10.93239
G1 X71.758 Y151.234 E10.95311
G1 X71.502 Y150.994 E10.9677
G1 X70.786 Y150.302 E11.0091
G1 X70.649 Y150.168 E11.01707
G1 X69.722 Y149.241 E11.07157
G1 X69.604 Y149.121 E11.07857
G1 X69.274 Y148.781 E11.09827
G1 X69.032 Y148.524 E11.11294
G1 X68.23 Y147.644 E11.16244
G1 X68.105 Y147.505 E11.17022
G1 X67.332 Y146.628 E11.21882
G1 X67.22 Y146.498 E11.22595
G1 X66.879 Y146.099 E11.24777
G1 X66.664 Y145.839 E11.2618
G1 X66.028 Y145.048 E11.304
G1 X65.904 Y144.892 E11.31228
G1 X65.117 Y143.877 E11.36568
G1 X65.002 Y143.726 E11.37357
G1 X64.74 Y143.376 E11.39175
G1 X64.547 Y143.11 E11.40541
G1 X63.786 Y142.029 E11.46037
G1 X63.681 Y141.878 E11.46802
G1 X63.093 Y141.013 E11.51151
G1 X63.006 Y140.883 E11.51801
G1 X62.721 Y140.451 E11.53953
G1 X62.529 Y140.15 E11.55437
G1 X61.965 Y139.233 E11.59913
G1 X61.867 Y139.069 E11.60707
G1 X61.258 Y138.04 E11.65678
G1 X61.172 Y137.894 E11.66383
G1 X60.885 Y137.392 E11.68787
G1 X60.719 Y137.089 E11.70223
G1 X60.24 Y136.188 E11.74466
G1 X60.148 Y136.013 E11.75288
G1 X59.574 Y134.886 E11.80546
G1 X59.509 Y134.755 E11.81154
G1 X59.296 Y134.323 E11.83156
G1 X59.134 Y133.98 E11.84733
G1 X58.614 Y132.829 E11.89984
G1 X58.543 Y132.669 E11.90712
G1 X58.099 Y131.644 E11.95356
G1 X58.037 Y131.497 E11.96019
G1 X57.85 Y131.048 E11.98042
G1 X57.714 Y130.708 E11.99564
G1 X57.336 Y129.71 E12.04001
G1 X57.273 Y129.538 E12.04762
G1 X56.863 Y128.4 E12.09791
G1 X56.807 Y128.24 E12.10496
G1 X56.647 Y127.774 E12.12545
G1 X56.535 Y127.431 E12.14045
G1 X56.141 Y126.151 E12.19613
G1 X56.088 Y125.974 E12.20381
G1 X55.803 Y124.991 E12.24636
G1 X55.759 Y124.835 E12.2531
G1 X55.613 Y124.303 E12.27603
G1 X55.525 Y123.963 E12.29064
G1 X55.287 Y122.976 E12.33285
G1 X55.246 Y122.796 E12.34052
G1 X54.977 Y121.594 E12.39173
G1 X54.948 Y121.462 E12.39735
G1 X54.831 Y120.908 E12.42089
G1 X54.756 Y120.521 E12.43728
G1 X54.578 Y119.503 E12.48025
G1 X54.548 Y119.324 E12.48779
G1 X54.343 Y118.029 E12.5423
G1 X54.32 Y117.872 E12.5489
G1 X54.258 Y117.441 E12.567
G1 X54.211 Y117.073 E12.58243
G1 X54.081 Y115.895 E12.6317
