;FLAVOR:Marlin
;TIME:4422
;Filament used: 3.5971m
;Layer height: 0.25
;MINX:64.419
;MINY:35.69
;MINZ:0.2
;MAXX:151.517
;MAXY:179.355
;MAXZ:6.95
;Generated with Cura_SteamEngine 4.4.1
M140 S110
M105
M190 S110
M104 S245
M105
M109 S245
M82 ;absolute extrusion mode
M201 X500.00 Y500.00 Z100.00 E5000.00 ;Setup machine max acceleration
M203 X500.00 Y500.00 Z10.00 E50.00 ;Setup machine max feedrate
M204 P500.00 R1000.00 T500.00 ;Setup Print/Retract/Travel acceleration
M205 X8.00 Y8.00 Z0.40 E5.00 ;Setup Jerk
M220 S100 ;Reset Feedrate
M221 S100 ;Reset Flowrate

G28 ;Home

G92 E0 ;Reset Extruder
G1 Z2.0 F3000 ;Move Z Axis up
G1 X10.1 Y20 Z0.28 F5000.0 ;Move to start position
G1 X10.1 Y200.0 Z0.28 F1500.0 E15 ;Draw the first line
G1 X10.4 Y200.0 Z0.28 F5000.0 ;Move to side a little
G1 X10.4 Y20 Z0.28 F1500.0 E30 ;Draw the second line
G92 E0 ;Reset Extruder
G1 Z2.0 F3000 ;Move Z Axis up

G92 E0
G92 E0
G1 F1500 E-6.5
;LAYER_COUNT:28
;LAYER:0
M107
G0 F6000 X76.019 Y54.06 Z0.2
;TYPE:SKIRT
G1 F1500 E0
G1 F1200 X76.57 Y53.287 E0.03947
G1 X76.83 Y52.953 E0.05706
G1 X77.443 Y52.23 E0.09647
G1 X78.069 Y51.604 E0.13328
G1 X78.361 Y51.334 E0.14981
G1 X79.084 Y50.72 E0.18925
G1 X79.778 Y50.22 E0.22481
G1 X80.108 Y50.001 E0.24128
G1 X80.92 Y49.511 E0.28071
G1 X81.711 Y49.116 E0.31746
G1 X82.102 Y48.94 E0.33529
G1 X82.983 Y48.588 E0.37473
G1 X83.517 Y48.415 E0.39807
G1 X84.113 Y48.238 E0.42392
G1 X84.282 Y48.189 E0.43124
G1 X85.704 Y47.791 E0.49263
G1 X88.119 Y47.041 E0.59776
G1 X90.509 Y46.222 E0.7028
G1 X92.849 Y45.349 E0.80663
G1 X95.154 Y44.41 E0.91011
G1 X97.484 Y43.384 E1.01596
G1 X99.72 Y42.325 E1.11882
G1 X101.969 Y41.179 E1.22376
G1 X104.206 Y39.96 E1.32968
G1 X105.791 Y39.045 E1.40577
G1 X107.022 Y38.431 E1.46296
G1 X108.361 Y37.863 E1.52343
G1 X108.634 Y37.752 E1.53568
G1 X109.038 Y37.593 E1.55373
G1 X110.145 Y37.135 E1.60354
G1 X111.374 Y36.708 E1.65763
G1 X111.994 Y36.532 E1.68443
G1 X112.916 Y36.311 E1.72384
G1 X113.584 Y36.202 E1.75198
G1 X114.893 Y36.028 E1.80688
G1 X115.121 Y36 E1.81643
G1 X115.437 Y35.965 E1.82965
G1 X116.319 Y35.845 E1.86666
G1 X116.516 Y35.82 E1.87492
G1 X116.89 Y35.776 E1.89057
G1 X117.959 Y35.702 E1.93512
G1 X118.511 Y35.69 E1.95808
G1 X119.46 Y35.709 E1.99754
G1 X120.106 Y35.768 E2.02451
G1 X121.405 Y35.925 E2.07891
G1 X121.756 Y35.973 E2.09364
G1 X122.135 Y36.031 E2.10958
G1 X123.05 Y36.148 E2.14793
G1 X123.231 Y36.173 E2.15552
G1 X123.591 Y36.225 E2.17065
G1 X124.16 Y36.322 E2.19464
G1 X124.378 Y36.365 E2.20388
G1 X124.971 Y36.498 E2.22915
G1 X125.219 Y36.561 E2.23979
G1 X125.713 Y36.699 E2.26111
G1 X125.967 Y36.776 E2.27215
G1 X127.177 Y37.22 E2.32573
G1 X127.339 Y37.29 E2.33307
G1 X129.897 Y38.363 E2.4484
G1 X130.514 Y38.645 E2.4766
G1 X130.707 Y38.74 E2.48554
G1 X131.152 Y38.971 E2.50639
G1 X131.336 Y39.072 E2.51512
G1 X131.856 Y39.376 E2.54016
G1 X132.117 Y39.538 E2.55293
G1 X133.172 Y40.279 E2.60653
G1 X133.605 Y40.622 E2.62949
G1 X135.49 Y42.078 E2.72852
G1 X136.386 Y42.848 E2.77764
G1 X136.835 Y43.277 E2.80346
G1 X137.492 Y43.961 E2.84289
G1 X137.945 Y44.507 E2.87238
G1 X138.671 Y45.441 E2.92156
G1 X138.857 Y45.687 E2.93439
G1 X139.042 Y45.939 E2.94738
G1 X139.666 Y46.746 E2.98979
G1 X139.782 Y46.899 E2.99778
G1 X140.032 Y47.234 E3.01516
G1 X140.636 Y48.129 E3.06005
G1 X140.921 Y48.599 E3.0829
G1 X141.378 Y49.43 E3.12233
G1 X141.653 Y50.028 E3.14969
G1 X142.181 Y51.269 E3.20576
G1 X142.313 Y51.593 E3.22031
G1 X142.419 Y51.867 E3.23252
G1 X142.856 Y52.913 E3.27965
G1 X142.948 Y53.141 E3.28987
G1 X143.033 Y53.358 E3.29956
G1 X143.261 Y53.996 E3.32773
G1 X143.373 Y54.342 E3.34285
G1 X143.611 Y55.187 E3.37935
G1 X143.691 Y55.521 E3.39363
G1 X143.921 Y56.808 E3.44798
G1 X143.997 Y57.442 E3.47453
G1 X144.237 Y59.272 E3.55126
G1 X144.258 Y59.436 E3.55814
G1 X144.314 Y59.917 E3.57827
G1 X144.386 Y60.945 E3.62111
G1 X144.399 Y61.481 E3.64341
G1 X144.382 Y62.43 E3.68287
G1 X144.32 Y63.113 E3.71138
G1 X144.145 Y64.551 E3.77161
G1 X144.101 Y64.871 E3.78503
G1 X144.04 Y65.276 E3.80206
G1 X143.938 Y66.074 E3.83551
G1 X143.911 Y66.276 E3.84398
G1 X143.68 Y67.857 E3.91041
G1 X143.344 Y70.4 E4.01706
G1 X143.089 Y72.87 E4.12029
G1 X142.899 Y75.409 E4.22615
G1 X142.783 Y77.912 E4.33032
G1 X142.738 Y80.422 E4.43469
G1 X142.763 Y82.904 E4.53789
G1 X142.86 Y85.435 E4.64319
G1 X143.029 Y87.956 E4.74824
G1 X143.265 Y90.438 E4.85189
G1 X143.569 Y92.893 E4.95474
G1 X143.955 Y95.411 E5.06065
G1 X144.403 Y97.877 E5.16485
G1 X144.924 Y100.344 E5.26968
G1 X145.504 Y102.75 E5.37257
G1 X146.169 Y105.207 E5.4784
G1 X146.887 Y107.584 E5.58163
G1 X147.688 Y109.993 E5.68718
G1 X148.549 Y112.354 E5.79166
G1 X149.404 Y114.517 E5.88836
G1 X150.42 Y116.993 E5.99963
G1 X150.478 Y117.136 E6.00604
G1 X150.741 Y117.803 E6.03585
G1 X151.051 Y118.7 E6.07531
G1 X151.285 Y119.619 E6.11474
G1 X151.441 Y120.554 E6.15415
G1 X151.517 Y121.5 E6.1936
G1 X151.513 Y122.448 E6.23302
G1 X151.429 Y123.393 E6.27246
G1 X151.267 Y124.327 E6.31187
G1 X151.119 Y124.924 E6.33744
G1 X150.876 Y125.805 E6.37544
G1 X150.182 Y128.398 E6.48704
G1 X149.602 Y130.833 E6.5911
G1 X149.093 Y133.292 E6.69551
G1 X148.656 Y135.741 E6.79893
G1 X148.281 Y138.251 E6.90444
G1 X147.983 Y140.72 E7.00784
G1 X147.75 Y143.255 E7.11367
G1 X147.594 Y145.717 E7.21624
G1 X147.505 Y148.234 E7.32095
G1 X147.488 Y150.778 E7.42672
G1 X147.543 Y153.342 E7.53334
G1 X147.576 Y154.287 E7.57265
G1 X147.569 Y155.235 E7.61207
G1 X147.483 Y156.18 E7.65152
G1 X147.317 Y157.114 E7.69096
G1 X147.074 Y158.03 E7.73036
G1 X146.754 Y158.923 E7.7698
G1 X146.36 Y159.786 E7.80924
G1 X145.894 Y160.612 E7.84867
G1 X145.361 Y161.397 E7.88812
G1 X144.763 Y162.133 E7.92754
G1 X144.106 Y162.817 E7.96697
G1 X143.393 Y163.443 E8.00642
G1 X142.63 Y164.006 E8.04584
G1 X141.823 Y164.504 E8.08527
G1 X140.871 Y164.978 E8.12948
G1 X140.592 Y165.101 E8.14216
G1 X140.323 Y165.216 E8.15432
G1 X134.166 Y167.741 E8.43099
G1 X134.038 Y167.792 E8.43672
G1 X133.399 Y168.045 E8.46529
G1 X132.185 Y168.448 E8.51847
G1 X131.732 Y168.57 E8.53798
G1 X129.249 Y169.274 E8.64528
G1 X126.868 Y170.021 E8.74902
G1 X124.473 Y170.849 E8.85438
G1 X122.14 Y171.729 E8.95805
G1 X119.833 Y172.676 E9.06173
G1 X117.501 Y173.711 E9.1678
G1 X115.259 Y174.782 E9.2711
G1 X113.062 Y175.909 E9.37376
G1 X111.659 Y176.688 E9.44048
G1 X111.571 Y176.736 E9.44464
G1 X110.42 Y177.362 E9.49912
G1 X109.835 Y177.658 E9.52637
G1 X109.342 Y177.89 E9.54903
G1 X108.226 Y178.344 E9.59912
G1 X107.65 Y178.543 E9.62445
G1 X106.323 Y178.912 E9.68172
G1 X105.737 Y179.037 E9.70663
G1 X104.372 Y179.242 E9.76401
G1 X103.756 Y179.296 E9.78972
G1 X102.964 Y179.337 E9.82269
G1 X102.015 Y179.353 E9.86215
G1 X101.825 Y179.355 E9.87005
G1 X81.353 Y179.355 E10.72118
G1 X81.199 Y179.354 E10.72758
G1 X80.614 Y179.346 E10.75191
G1 X80.246 Y179.335 E10.76721
G1 X79.729 Y179.311 E10.78873
G1 X78.541 Y179.192 E10.83837
G1 X77.793 Y179.077 E10.86983
G1 X76.676 Y178.847 E10.91725
G1 X76.391 Y178.773 E10.92949
G1 X75.616 Y178.542 E10.96311
G1 X75.329 Y178.445 E10.97571
G1 X74.336 Y178.056 E11.02004
G1 X73.717 Y177.779 E11.04824
G1 X72.467 Y177.123 E11.10693
G1 X71.967 Y176.819 E11.13126
G1 X71.189 Y176.3 E11.17014
G1 X70.935 Y176.115 E11.1832
G1 X70.254 Y175.577 E11.21929
G1 X70.008 Y175.367 E11.23273
G1 X69.259 Y174.667 E11.27536
G1 X68.819 Y174.216 E11.30155
G1 X67.917 Y173.169 E11.35901
G1 X67.533 Y172.664 E11.38538
G1 X66.991 Y171.886 E11.4248
G1 X66.741 Y171.473 E11.44487
G1 X66.439 Y170.949 E11.47002
G1 X65.813 Y169.685 E11.52866
G1 X65.562 Y169.087 E11.55562
G1 X65.232 Y168.198 E11.59505
G1 X65.095 Y167.742 E11.61484
G1 X64.929 Y167.144 E11.64065
G1 X64.64 Y165.78 E11.69861
G1 X64.551 Y165.178 E11.72391
G1 X64.432 Y163.763 E11.78295
G1 X64.419 Y163.126 E11.80944
G1 X64.478 Y161.726 E11.8677
G1 X64.544 Y161.095 E11.89407
G1 X64.682 Y160.156 E11.93353
G1 X64.782 Y159.688 E11.95343
G1 X64.934 Y159.042 E11.98102
G1 X65.029 Y158.668 E11.99706
G1 X65.349 Y157.491 E12.04777
G1 X65.992 Y154.984 E12.15538
G1 X66.546 Y152.54 E12.25956
G1 X67.044 Y150.022 E12.36628
G1 X67.447 Y147.606 E12.46811
G1 X67.795 Y145.103 E12.57317
G1 X68.068 Y142.629 E12.67666
G1 X68.274 Y140.096 E12.78231
G1 X68.405 Y137.626 E12.88515
G1 X68.468 Y135.091 E12.99057
G1 X68.455 Y132.244 E13.10894
G1 X68.417 Y130.452 E13.18346
G1 X68.425 Y129.745 E13.21285
G1 X68.434 Y129.53 E13.2218
G1 X68.442 Y129.362 E13.22879
G1 X68.572 Y127.075 E13.32403
G1 X68.643 Y124.597 E13.42709
G1 X68.645 Y122.085 E13.53153
G1 X68.574 Y119.545 E13.63717
G1 X68.434 Y117.058 E13.74074
G1 X68.223 Y114.555 E13.84517
G1 X67.942 Y112.083 E13.9486
G1 X67.586 Y109.573 E14.054
G1 X67.164 Y107.108 E14.15797
G1 X66.672 Y104.647 E14.26232
G1 X66.108 Y102.188 E14.3672
G1 X65.482 Y99.779 E14.47068
G1 X65.334 Y99.264 E14.49296
G1 X65.271 Y99.034 E14.50288
G1 X65.142 Y98.545 E14.5239
G1 X64.928 Y97.551 E14.56617
G1 X64.86 Y97.149 E14.58313
G1 X64.741 Y96.208 E14.62256
G1 X64.702 Y95.273 E14.66147
G1 X64.702 Y94.87 E14.67822
G1 X64.742 Y93.922 E14.71767
G1 X64.846 Y93.079 E14.75298
G1 X64.911 Y92.676 E14.76995
G1 X65.101 Y91.746 E14.80942
G1 X65.366 Y90.846 E14.84842
G1 X65.503 Y90.443 E14.86612
G1 X65.938 Y89.353 E14.91491
G1 X66.147 Y88.9 E14.93565
G1 X67.201 Y86.514 E15.0441
G1 X68.143 Y84.209 E15.14762
G1 X69.019 Y81.874 E15.25131
G1 X69.845 Y79.468 E15.35707
G1 X70.582 Y77.108 E15.45986
G1 X71.265 Y74.683 E15.5646
G1 X71.882 Y72.229 E15.6698
G1 X72.43 Y69.763 E15.77483
G1 X72.893 Y67.335 E15.87759
G1 X73.298 Y64.848 E15.98235
G1 X73.635 Y62.331 E16.08793
G1 X73.873 Y60.123 E16.18026
G1 X73.963 Y59.467 E16.20779
G1 X74.026 Y59.091 E16.22364
G1 X74.222 Y58.163 E16.26307
G1 X74.478 Y57.305 E16.3003
G1 X74.615 Y56.905 E16.31788
G1 X74.96 Y56.021 E16.35733
G1 X75.346 Y55.228 E16.394
G1 X75.535 Y54.876 E16.41061
G1 X76.019 Y54.06 E16.45005
G0 F6000 X76.449 Y54.315
G1 F1200 X76.964 Y53.595 E16.48685
G1 X77.224 Y53.261 E16.50445
G1 X77.825 Y52.554 E16.54303
G1 X78.409 Y51.971 E16.57734
G1 X78.701 Y51.701 E16.59387
G1 X79.408 Y51.102 E16.6324
G1 X80.055 Y50.637 E16.66552
G1 X80.385 Y50.418 E16.68199
G1 X81.179 Y49.939 E16.72054
G1 X81.917 Y49.572 E16.75481
G1 X82.308 Y49.396 E16.77263
G1 X83.169 Y49.053 E16.81117
G1 X83.66 Y48.894 E16.83262
G1 X84.256 Y48.717 E16.85847
G1 X84.417 Y48.67 E16.86545
G1 X85.873 Y48.262 E16.92831
G1 X88.261 Y47.521 E17.03226
G1 X90.667 Y46.697 E17.138
G1 X93.044 Y45.809 E17.24349
G1 X95.365 Y44.864 E17.34768
G1 X97.647 Y43.859 E17.45135
G1 X99.979 Y42.755 E17.55861
G1 X102.183 Y41.632 E17.66146
G1 X104.456 Y40.393 E17.76908
G1 X106.041 Y39.478 E17.84517
G1 X107.217 Y38.892 E17.8998
G1 X108.556 Y38.324 E17.96027
G1 X108.817 Y38.217 E17.972
G1 X109.237 Y38.052 E17.99076
G1 X110.336 Y37.597 E18.04021
G1 X111.51 Y37.189 E18.09188
G1 X112.13 Y37.013 E18.11868
G1 X113.032 Y36.798 E18.15723
G1 X113.65 Y36.698 E18.18326
G1 X114.959 Y36.524 E18.23816
G1 X115.177 Y36.497 E18.24729
G1 X115.471 Y36.464 E18.25959
G1 X116.386 Y36.34 E18.29798
G1 X116.574 Y36.317 E18.30585
G1 X116.948 Y36.273 E18.32151
G1 X117.97 Y36.202 E18.3641
G1 X118.522 Y36.19 E18.38706
G1 X119.449 Y36.209 E18.4256
G1 X120.046 Y36.265 E18.45053
G1 X121.345 Y36.422 E18.50493
G1 X121.68 Y36.468 E18.51899
G1 X122.032 Y36.522 E18.5338
G1 X122.987 Y36.644 E18.57382
G1 X123.16 Y36.667 E18.58108
G1 X123.52 Y36.719 E18.5962
G1 X124.063 Y36.812 E18.61911
G1 X124.281 Y36.855 E18.62834
G1 X124.848 Y36.983 E18.65251
G1 X125.096 Y37.046 E18.66315
G1 X125.568 Y37.177 E18.68351
G1 X125.822 Y37.254 E18.69455
G1 X126.978 Y37.679 E18.74575
G1 X127.124 Y37.742 E18.75237
G1 X129.704 Y38.824 E18.86868
G1 X130.293 Y39.093 E18.8956
G1 X130.486 Y39.188 E18.90454
G1 X130.912 Y39.409 E18.9245
G1 X131.096 Y39.51 E18.93322
G1 X131.592 Y39.8 E18.95711
G1 X131.853 Y39.962 E18.96988
G1 X132.861 Y40.671 E19.02112
G1 X133.263 Y40.99 E19.04245
G1 X135.185 Y42.474 E19.14341
G1 X136.04 Y43.209 E19.19029
G1 X136.489 Y43.638 E19.2161
G1 X137.131 Y44.307 E19.25465
G1 X137.55 Y44.814 E19.282
G1 X138.276 Y45.748 E19.33118
G1 X138.454 Y45.983 E19.34344
G1 X138.652 Y46.253 E19.35736
G1 X139.27 Y47.052 E19.39935
G1 X139.381 Y47.198 E19.40698
G1 X139.631 Y47.533 E19.42436
G1 X140.208 Y48.388 E19.46724
G1 X140.493 Y48.858 E19.49009
G1 X140.939 Y49.671 E19.52864
G1 X141.193 Y50.223 E19.55391
G1 X141.721 Y51.464 E19.60998
G1 X141.847 Y51.774 E19.62389
G1 X141.962 Y52.069 E19.63705
G1 X142.394 Y53.105 E19.68372
G1 X142.482 Y53.323 E19.69349
G1 X142.567 Y53.54 E19.70318
G1 X142.786 Y54.15 E19.73013
G1 X142.898 Y54.496 E19.74525
G1 X143.124 Y55.303 E19.78009
G1 X143.204 Y55.637 E19.79437
G1 X143.424 Y56.867 E19.84632
G1 X143.498 Y57.483 E19.87211
G1 X143.741 Y59.337 E19.94985
G1 X143.761 Y59.494 E19.95643
G1 X143.817 Y59.975 E19.97657
G1 X143.886 Y60.957 E20.01749
G1 X143.899 Y61.493 E20.03978
G1 X143.881 Y62.42 E20.07833
G1 X143.823 Y63.053 E20.10476
G1 X143.648 Y64.491 E20.16498
G1 X143.607 Y64.797 E20.17782
G1 X143.542 Y65.227 E20.1959
G1 X143.442 Y66.011 E20.22876
G1 X143.416 Y66.204 E20.23686
G1 X143.193 Y67.729 E20.30093
G1 X142.847 Y70.353 E20.41097
G1 X142.589 Y72.852 E20.51542
G1 X142.399 Y75.382 E20.6209
G1 X142.283 Y77.881 E20.72491
G1 X142.238 Y80.418 E20.8304
G1 X142.263 Y82.928 E20.93476
G1 X142.36 Y85.452 E21.03977
G1 X142.528 Y87.969 E21.14465
G1 X142.77 Y90.511 E21.25081
G1 X143.078 Y92.994 E21.35484
G1 X143.456 Y95.465 E21.45876
G1 X143.917 Y97.999 E21.56584
G1 X144.429 Y100.426 E21.66897
G1 X145.022 Y102.885 E21.77413
G1 X145.691 Y105.354 E21.88048
G1 X146.411 Y107.74 E21.9841
G1 X147.214 Y110.155 E22.08991
G1 X148.072 Y112.505 E22.19392
G1 X148.924 Y114.662 E22.29034
G1 X149.958 Y117.183 E22.40362
G1 X150.013 Y117.32 E22.40976
G1 X150.276 Y117.987 E22.43957
G1 X150.578 Y118.863 E22.47809
G1 X150.804 Y119.762 E22.51663
G1 X150.952 Y120.678 E22.55521
G1 X151.02 Y121.602 E22.59373
G1 X151.008 Y122.529 E22.63227
G1 X150.917 Y123.452 E22.67083
G1 X150.637 Y124.791 E22.7277
G1 X150.393 Y125.676 E22.76587
G1 X149.7 Y128.266 E22.87734
G1 X149.108 Y130.753 E22.98362
G1 X148.607 Y133.173 E23.08637
G1 X148.159 Y135.685 E23.19245
G1 X147.79 Y138.153 E23.2962
G1 X147.484 Y140.685 E23.40224
G1 X147.252 Y143.213 E23.50778
G1 X147.094 Y145.703 E23.61151
G1 X147.005 Y148.213 E23.71593
G1 X146.988 Y150.749 E23.82137
G1 X147.046 Y153.443 E23.9334
G1 X147.076 Y154.305 E23.96926
G1 X147.069 Y155.232 E24.0078
G1 X146.982 Y156.155 E24.04634
G1 X146.816 Y157.067 E24.08488
G1 X146.571 Y157.961 E24.12342
G1 X146.251 Y158.831 E24.16196
G1 X145.857 Y159.67 E24.20049
G1 X145.392 Y160.472 E24.23904
G1 X144.859 Y161.231 E24.2776
G1 X144.263 Y161.942 E24.31617
G1 X143.608 Y162.598 E24.35471
G1 X142.899 Y163.196 E24.39327
G1 X142.142 Y163.73 E24.43179
G1 X141.34 Y164.197 E24.47037
G1 X140.67 Y164.521 E24.50131
G1 X140.391 Y164.644 E24.51399
G1 X140.133 Y164.753 E24.52563
G1 X133.976 Y167.278 E24.8023
G1 X133.854 Y167.327 E24.80777
G1 X133.215 Y167.58 E24.83634
G1 X132.055 Y167.965 E24.88715
G1 X131.624 Y168.081 E24.90571
G1 X129.1 Y168.796 E25.01477
G1 X126.702 Y169.549 E25.11927
G1 X124.314 Y170.375 E25.22432
G1 X121.972 Y171.258 E25.32838
G1 X119.62 Y172.223 E25.43408
G1 X117.292 Y173.256 E25.53997
G1 X115.039 Y174.333 E25.64379
G1 X112.803 Y175.48 E25.74827
G1 X111.416 Y176.25 E25.81422
G1 X111.332 Y176.297 E25.81822
G1 X110.181 Y176.923 E25.8727
G1 X109.622 Y177.206 E25.89875
G1 X109.129 Y177.438 E25.9214
G1 X108.062 Y177.872 E25.96929
G1 X107.486 Y178.071 E25.99462
G1 X106.219 Y178.423 E26.0493
G1 X105.633 Y178.548 E26.07421
G1 X104.329 Y178.744 E26.12903
G1 X103.713 Y178.798 E26.15474
G1 X102.955 Y178.837 E26.18629
G1 X102.006 Y178.853 E26.22575
G1 X101.825 Y178.855 E26.23328
G1 X81.353 Y178.855 E27.08441
G1 X81.206 Y178.854 E27.09052
G1 X80.621 Y178.846 E27.11484
G1 X80.27 Y178.835 E27.12944
G1 X79.753 Y178.811 E27.15096
G1 X78.617 Y178.698 E27.19842
G1 X77.869 Y178.583 E27.22989
G1 X76.801 Y178.363 E27.27522
G1 X76.516 Y178.289 E27.28746
G1 X75.776 Y178.068 E27.31957
G1 X75.489 Y177.971 E27.33217
G1 X74.54 Y177.599 E27.37454
G1 X73.921 Y177.322 E27.40274
G1 X72.727 Y176.695 E27.45881
G1 X72.227 Y176.391 E27.48313
G1 X71.483 Y175.895 E27.52031
G1 X71.229 Y175.71 E27.53337
G1 X70.578 Y175.197 E27.56783
