;FLAVOR:Marlin
;TIME:7539
;Filament used: 6.72539m
;Layer height: 0.25
;MINX:50.503
;MINY:67.278
;MINZ:0.2
;MAXX:149.5
;MAXY:132.722
;MAXZ:31.95
;Generated with Cura_SteamEngine main
M140 S110
M105
M190 S110
M104 S245
M105
M109 S245
M82 ;absolute extrusion mode
; Ender 3 Custom Start G-code
G92 E0 ; Reset Extruder
G28 ; Home all axes
G1 Z2.0 F3000 ; Move Z Axis up little to prevent scratching of Heat Bed
G1 X0.1 Y20 Z0.3 F5000.0 ; Move to start position
G1 X0.1 Y200.0 Z0.3 F1500.0 E15 ; Draw the first line
G1 X0.4 Y200.0 Z0.3 F5000.0 ; Move to side a little
G1 X0.4 Y20 Z0.3 F1500.0 E30 ; Draw the second line
G92 E0 ; Reset Extruder
G1 Z2.0 F3000 ; Move Z Axis up little to prevent scratching of Heat Bed
G1 X5 Y20 Z0.3 F5000.0 ; Move over to prevent blob squish
G92 E0
G92 E0
G1 F2700 E-5
;LAYER_COUNT:128
;LAYER:0
M107
G0 F6000 X56.513 Y76.191 Z0.2
G0 X50.798 Y85.704
;TYPE:SKIRT
G1 F2700 E0
G1 F1200 X50.968 Y84.916 E0.02681
G1 X51.048 Y84.587 E0.03807
G1 X51.398 Y83.431 E0.07825
G1 X51.654 Y82.759 E0.10216
G1 X51.85 Y82.288 E0.11913
G1 X52.372 Y81.204 E0.15915
G1 X52.582 Y80.823 E0.17362
G1 X52.894 Y80.289 E0.19419
G1 X53.645 Y79.19 E0.23846
G1 X54.13 Y78.565 E0.26477
G1 X54.736 Y77.85 E0.29595
G1 X55.27 Y77.309 E0.32123
G1 X55.804 Y76.805 E0.34565
G1 X56.513 Y76.191 E0.37685
G1 X57.082 Y75.769 E0.40041
G1 X57.677 Y75.356 E0.4245
G1 X58.469 Y74.854 E0.45569
G1 X59.016 Y74.56 E0.47634
G1 X59.602 Y74.266 E0.49815
G1 X60.118 Y74.024 E0.5171
G1 X60.565 Y73.828 E0.53334
G1 X60.993 Y73.651 E0.54874
G1 X74.04 Y68.575 E1.01437
G1 X74.66 Y68.344 E1.03638
G1 X75.58 Y68.032 E1.06869
G1 X76.777 Y67.709 E1.10992
G1 X77.416 Y67.575 E1.13164
G1 X78.78 Y67.377 E1.17748
G1 X79.393 Y67.327 E1.19794
G1 X80.12 Y67.292 E1.22215
G1 X81.146 Y67.278 E1.25627
G1 X94.697 Y67.284 E1.70698
G1 X95.242 Y67.298 E1.72511
G1 X96.24 Y67.348 E1.75835
G1 X97.174 Y67.435 E1.78955
G1 X97.888 Y67.556 E1.81364
G1 X98.545 Y67.69 E1.83594
G1 X99.478 Y67.923 E1.86792
G1 X100.258 Y68.156 E1.895
G1 X101.755 Y68.625 E1.94717
G1 X104.191 Y69.312 E2.03136
G1 X106.629 Y69.925 E2.11497
G1 X109.128 Y70.48 E2.20011
G1 X111.558 Y70.947 E2.28241
G1 X114.042 Y71.353 E2.36613
G1 X116.534 Y71.687 E2.44975
G1 X119.046 Y71.952 E2.53377
G1 X121.545 Y72.145 E2.61713
G1 X124.057 Y72.267 E2.70078
G1 X127.213 Y72.322 E2.80576
G1 X137.951 Y72.323 E3.16291
G1 X138.649 Y72.333 E3.18613
G1 X139.585 Y72.387 E3.21731
G1 X140.513 Y72.519 E3.24849
G1 X141.427 Y72.731 E3.27969
G1 X142.319 Y73.02 E3.31088
G1 X143.184 Y73.383 E3.34208
G1 X144.014 Y73.819 E3.37326
G1 X144.805 Y74.324 E3.40448
G1 X145.549 Y74.895 E3.43567
G1 X146.242 Y75.527 E3.46687
G1 X146.879 Y76.215 E3.49805
G1 X147.454 Y76.956 E3.52925
G1 X147.965 Y77.742 E3.56043
G1 X148.407 Y78.57 E3.59165
G1 X148.776 Y79.432 E3.62283
G1 X149.071 Y80.322 E3.65402
G1 X149.289 Y81.234 E3.68521
G1 X149.429 Y82.162 E3.71642
G1 X149.487 Y83.021 E3.74506
G1 X149.5 Y83.65 E3.76598
G1 X149.499 Y94.737 E4.13474
G1 X149.489 Y95.464 E4.15892
G1 X149.436 Y96.401 E4.19013
G1 X149.304 Y97.329 E4.22131
G1 X149.093 Y98.243 E4.25251
G1 X148.804 Y99.135 E4.28369
G1 X148.441 Y100 E4.31489
G1 X148.006 Y100.831 E4.34609
G1 X147.501 Y101.621 E4.37728
G1 X146.931 Y102.366 E4.40848
G1 X146.3 Y103.06 E4.43967
G1 X145.611 Y103.697 E4.47088
G1 X144.871 Y104.273 E4.50207
G1 X144.085 Y104.784 E4.53325
G1 X143.258 Y105.226 E4.56444
G1 X142.396 Y105.596 E4.59564
G1 X141.583 Y105.869 E4.62417
G1 X140.546 Y106.173 E4.66011
G1 X138.008 Y106.952 E4.74841
G1 X135.648 Y107.751 E4.83128
G1 X133.296 Y108.622 E4.9147
G1 X130.918 Y109.579 E4.99996
G1 X128.657 Y110.565 E5.082
G1 X126.361 Y111.644 E5.16638
G1 X124.086 Y112.794 E5.25116
G1 X121.903 Y113.973 E5.33368
G1 X119.736 Y115.226 E5.41694
G1 X117.589 Y116.551 E5.50085
G1 X115.455 Y117.952 E5.58576
G1 X113.412 Y119.377 E5.6686
G1 X111.384 Y120.878 E5.75252
G1 X109.41 Y122.429 E5.83602
G1 X107.468 Y124.045 E5.92005
G1 X105.581 Y125.706 E6.00366
G1 X103.593 Y127.563 E6.09414
G1 X102.795 Y128.33 E6.13095
G1 X102.015 Y129.012 E6.16541
G1 X101.479 Y129.438 E6.18819
G1 X100.721 Y129.99 E6.21937
G1 X100.15 Y130.345 E6.24174
G1 X99.451 Y130.75 E6.26861
G1 X98.62 Y131.185 E6.2998
G1 X98.135 Y131.399 E6.31744
G1 X97.491 Y131.658 E6.34052
G1 X97.175 Y131.776 E6.35174
G1 X95.879 Y132.171 E6.3968
G1 X95.141 Y132.347 E6.42204
G1 X94.22 Y132.525 E6.45324
G1 X93.571 Y132.603 E6.47498
G1 X93.002 Y132.654 E6.49398
G1 X92.465 Y132.689 E6.51188
G1 X91.872 Y132.713 E6.53162
G1 X91.426 Y132.722 E6.54645
G1 X81.861 Y132.72 E6.86459
G1 X81.155 Y132.71 E6.88807
G1 X80.491 Y132.683 E6.91018
G1 X79.662 Y132.616 E6.93784
G1 X78.345 Y132.414 E6.98215
G1 X77.558 Y132.244 E7.00893
G1 X76.651 Y132.007 E7.04011
G1 X75.901 Y131.747 E7.06651
G1 X75.208 Y131.478 E7.09124
G1 X74.348 Y131.101 E7.12247
G1 X73.753 Y130.787 E7.14485
G1 X73.035 Y130.379 E7.17231
G1 X72.241 Y129.881 E7.20349
G1 X71.695 Y129.481 E7.226
G1 X71.093 Y128.997 E7.25169
G1 X70.082 Y128.131 E7.29597
G1 X68.104 Y126.487 E7.38151
G1 X66.131 Y124.939 E7.46492
G1 X64.115 Y123.448 E7.54832
G1 X62.014 Y121.984 E7.63349
G1 X59.941 Y120.625 E7.71593
G1 X58.561 Y119.769 E7.76995
G1 X57.389 Y119.003 E7.81651
G1 X56.628 Y118.455 E7.8477
G1 X56.059 Y117.975 E7.87246
G1 X55.533 Y117.5 E7.89604
G1 X54.864 Y116.842 E7.92725
G1 X54.416 Y116.332 E7.94982
G1 X53.924 Y115.735 E7.97556
G1 X53.359 Y114.986 E8.00676
G1 X52.944 Y114.336 E8.03241
G1 X52.558 Y113.683 E8.05764
G1 X52.115 Y112.857 E8.08881
G1 X51.834 Y112.221 E8.11194
G1 X51.574 Y111.58 E8.13495
G1 X51.258 Y110.696 E8.16617
G1 X51.08 Y110.051 E8.18843
G1 X50.881 Y109.235 E8.21636
G1 X50.698 Y108.315 E8.24756
G1 X50.614 Y107.639 E8.27022
G1 X50.574 Y107.205 E8.28471
G1 X50.518 Y106.3 E8.31487
G1 X50.503 Y105.722 E8.3341
G1 X50.503 Y89.106 E8.88675
G1 X50.52 Y88.253 E8.91513
G1 X50.562 Y87.49 E8.94054
G1 X50.608 Y86.977 E8.95768
G1 X50.798 Y85.704 E9.00048
G1 F2700 E4.00048
G0 F6000 X50.903 Y89.114
G1 F2700 E9.00048
G1 F1200 X50.92 Y88.261 E9.02886
G1 X50.96 Y87.525 E9.05338
G1 X51.006 Y87.012 E9.07051
G1 X51.189 Y85.786 E9.11174
G1 X51.282 Y85.342 E9.12682
G1 X51.437 Y84.681 E9.14941
G1 X51.774 Y83.568 E9.18808
G1 X52.024 Y82.913 E9.2114
G1 X52.22 Y82.442 E9.22837
G1 X52.723 Y81.397 E9.26694
G1 X52.933 Y81.016 E9.28141
G1 X53.238 Y80.494 E9.30152
G1 X53.961 Y79.436 E9.34414
G1 X54.446 Y78.811 E9.37045
G1 X55.041 Y78.108 E9.40109
G1 X55.544 Y77.6 E9.42486
G1 X56.078 Y77.096 E9.44929
G1 X56.775 Y76.494 E9.47992
G1 X57.31 Y76.097 E9.50208
G1 X57.905 Y75.684 E9.52617
G1 X58.683 Y75.193 E9.55677
G1 X59.196 Y74.918 E9.57613
G1 X59.782 Y74.624 E9.59793
G1 X60.278 Y74.39 E9.61617
G1 X60.725 Y74.194 E9.63241
G1 X61.138 Y74.024 E9.64726
G1 X74.179 Y68.95 E10.11268
G1 X75.171 Y68.588 E10.1478
G1 X75.706 Y68.411 E10.16654
G1 X76.859 Y68.101 E10.20626
G1 X77.498 Y67.967 E10.22797
G1 X78.812 Y67.776 E10.27213
G1 X79.425 Y67.726 E10.29259
G1 X80.126 Y67.692 E10.31593
G1 X81.146 Y67.678 E10.34986
G1 X94.697 Y67.684 E10.80057
G1 X95.222 Y67.697 E10.81804
G1 X96.22 Y67.747 E10.85127
G1 X97.137 Y67.833 E10.88191
G1 X97.808 Y67.948 E10.90455
G1 X98.465 Y68.082 E10.92685
G1 X99.364 Y68.307 E10.95767
G1 X100.139 Y68.538 E10.98457
G1 X101.642 Y69.009 E11.03696
G1 X104.081 Y69.697 E11.12124
G1 X106.558 Y70.32 E11.2062
G1 X109.004 Y70.863 E11.28953
G1 X111.518 Y71.346 E11.37468
G1 X113.962 Y71.745 E11.45704
G1 X116.51 Y72.087 E11.54255
G1 X119.009 Y72.351 E11.62613
G1 X121.496 Y72.543 E11.70909
G1 X124.062 Y72.667 E11.79454
G1 X127.206 Y72.722 E11.89912
G1 X137.945 Y72.723 E12.2563
G1 X138.643 Y72.733 E12.27952
G1 X139.562 Y72.786 E12.31014
G1 X140.473 Y72.919 E12.34076
G1 X141.369 Y73.13 E12.37137
G1 X142.243 Y73.418 E12.40198
G1 X143.09 Y73.781 E12.43263
G1 X143.901 Y74.216 E12.46324
G1 X144.671 Y74.72 E12.49385
G1 X145.395 Y75.289 E12.52448
G1 X146.067 Y75.919 E12.55511
G1 X146.682 Y76.604 E12.58573
G1 X147.235 Y77.34 E12.61635
G1 X147.722 Y78.121 E12.64696
G1 X148.139 Y78.942 E12.67759
G1 X148.484 Y79.796 E12.70822
G1 X148.753 Y80.676 E12.73883
G1 X148.945 Y81.577 E12.76947
G1 X149.058 Y82.49 E12.80007
G1 X149.087 Y83.032 E12.81812
G1 X149.1 Y83.65 E12.83868
G1 X149.099 Y94.732 E13.20727
G1 X149.089 Y95.459 E13.23145
G1 X149.036 Y96.378 E13.26207
G1 X148.904 Y97.289 E13.29269
G1 X148.693 Y98.185 E13.3233
G1 X148.406 Y99.06 E13.35393
G1 X148.043 Y99.906 E13.38455
G1 X147.609 Y100.718 E13.41517
G1 X147.105 Y101.489 E13.44581
G1 X146.537 Y102.213 E13.47641
G1 X145.908 Y102.885 E13.50703
G1 X145.223 Y103.5 E13.53765
G1 X144.487 Y104.053 E13.56827
G1 X143.706 Y104.541 E13.5989
G1 X142.886 Y104.959 E13.62951
G1 X142.032 Y105.304 E13.66014
G1 X141.47 Y105.485 E13.67978
G1 X140.395 Y105.8 E13.71704
G1 X137.909 Y106.563 E13.80353
G1 X135.518 Y107.373 E13.88749
G1 X133.144 Y108.252 E13.97169
G1 X130.787 Y109.2 E14.05619
G1 X128.476 Y110.208 E14.14005
G1 X126.175 Y111.289 E14.2246
G1 X123.938 Y112.42 E14.30798
G1 X121.693 Y113.634 E14.39286
G1 X119.532 Y114.883 E14.47588
G1 X117.356 Y116.225 E14.56091
G1 X115.236 Y117.616 E14.64525
G1 X113.191 Y119.043 E14.72819
G1 X111.145 Y120.558 E14.81286
G1 X109.149 Y122.126 E14.89728
G1 X107.214 Y123.735 E14.98098
G1 X105.309 Y125.413 E15.06542
G1 X103.325 Y127.266 E15.15571
G1 X102.518 Y128.042 E15.19295
G1 X101.766 Y128.699 E15.22616
G1 X101.23 Y129.125 E15.24893
G1 X100.485 Y129.666 E15.27956
G1 X99.949 Y129.999 E15.30054
G1 X99.25 Y130.404 E15.32741
G1 X98.434 Y130.83 E15.35803
G1 X97.982 Y131.029 E15.37446
G1 X97.351 Y131.283 E15.39708
G1 X97.035 Y131.401 E15.4083
G1 X95.786 Y131.782 E15.45173
G1 X95.048 Y131.958 E15.47697
G1 X94.144 Y132.132 E15.50758
G1 X93.535 Y132.205 E15.52798
G1 X92.966 Y132.256 E15.54699
G1 X92.449 Y132.289 E15.56422
G1 X91.426 Y132.322 E15.59826
G1 X81.867 Y132.32 E15.91619
G1 X81.161 Y132.31 E15.93968
G1 X80.512 Y132.284 E15.96128
G1 X79.699 Y132.218 E15.98841
G1 X78.43 Y132.023 E16.03111
G1 X77.643 Y131.853 E16.05789
G1 X76.752 Y131.62 E16.08852
G1 X76.045 Y131.374 E16.11342
G1 X75.352 Y131.105 E16.13814
G1 X74.509 Y130.735 E16.16876
G1 X73.951 Y130.439 E16.18977
G1 X73.233 Y130.031 E16.21724
G1 X72.453 Y129.542 E16.24786
G1 X71.941 Y129.166 E16.26899
G1 X71.353 Y128.693 E16.29409
G1 X70.315 Y127.804 E16.33954
G1 X68.361 Y126.18 E16.42405
G1 X66.392 Y124.635 E16.50729
G1 X64.313 Y123.097 E16.5933
G1 X62.281 Y121.682 E16.67566
G1 X60.131 Y120.272 E16.76118
G1 X58.772 Y119.429 E16.81437
G1 X57.609 Y118.669 E16.86058
G1 X56.862 Y118.13 E16.89121
G1 X56.327 Y117.678 E16.91451
G1 X55.801 Y117.203 E16.93808
G1 X55.145 Y116.557 E16.9687
G1 X54.725 Y116.077 E16.98992
G1 X54.233 Y115.48 E17.01565
G1 X53.679 Y114.745 E17.04626
G1 X53.288 Y114.133 E17.07041
G1 X52.902 Y113.48 E17.09564
G1 X52.468 Y112.668 E17.12627
G1 X52.204 Y112.07 E17.14801
G1 X51.944 Y111.429 E17.17102
G1 X51.636 Y110.562 E17.20162
G1 X51.469 Y109.956 E17.22252
G1 X51.27 Y109.14 E17.25046
G1 X51.091 Y108.237 E17.28108
G1 X51.013 Y107.602 E17.30236
G1 X50.943 Y106.753 E17.33069
G1 X50.918 Y106.279 E17.34648
G1 X50.903 Y105.722 E17.36501
G1 X50.903 Y89.114 E17.9174
G0 F6000 X51.301 Y89.326
G1 F1200 X51.32 Y88.269 E17.95256
G1 X51.359 Y87.561 E17.97614
G1 X51.405 Y87.048 E17.99327
G1 X51.581 Y85.868 E18.03295
G1 X51.674 Y85.424 E18.04804
G1 X51.826 Y84.776 E18.07018
G1 X52.15 Y83.704 E18.10743
G1 X52.393 Y83.066 E18.13013
G1 X52.589 Y82.595 E18.1471
G1 X53.073 Y81.59 E18.1842
G1 X53.283 Y81.209 E18.19867
G1 X53.581 Y80.699 E18.21832
G1 X54.277 Y79.681 E18.25933
G1 X54.762 Y79.056 E18.28565
G1 X55.346 Y78.367 E18.31569
G1 X55.819 Y77.891 E18.33801
G1 X56.353 Y77.387 E18.36243
G1 X57.036 Y76.797 E18.39245
G1 X57.538 Y76.426 E18.41321
G1 X58.133 Y76.013 E18.4373
G1 X58.897 Y75.531 E18.46734
G1 X59.375 Y75.275 E18.48538
G1 X59.961 Y74.981 E18.50718
G1 X60.439 Y74.757 E18.52474
G1 X61.283 Y74.396 E18.55527
G1 X74.181 Y69.377 E19.0156
G1 X74.939 Y69.094 E19.04251
G1 X75.831 Y68.791 E19.07384
G1 X76.942 Y68.492 E19.11211
G1 X77.581 Y68.358 E19.13382
G1 X78.845 Y68.175 E19.1763
G1 X79.458 Y68.125 E19.19676
G1 X80.132 Y68.092 E19.2192
G1 X81.146 Y68.078 E19.25293
G1 X94.697 Y68.084 E19.70364
G1 X95.202 Y68.097 E19.72044
G1 X96.2 Y68.147 E19.75368
G1 X97.099 Y68.232 E19.78371
G1 X97.728 Y68.34 E19.80494
G1 X98.385 Y68.474 E19.82724
G1 X99.251 Y68.69 E19.85693
G1 X100.019 Y68.919 E19.88358
G1 X101.541 Y69.396 E19.93663
G1 X103.989 Y70.087 E20.02123
G1 X106.438 Y70.702 E20.10522
G1 X108.948 Y71.259 E20.19073
G1 X111.415 Y71.734 E20.27429
G1 X113.95 Y72.147 E20.35972
G1 X116.417 Y72.478 E20.4425
G1 X118.973 Y72.748 E20.52799
G1 X121.514 Y72.945 E20.61276
G1 X124.037 Y73.067 E20.69677
G1 X127.199 Y73.122 E20.80195
G1 X137.939 Y73.123 E21.15917
G1 X138.637 Y73.133 E21.18239
G1 X139.539 Y73.186 E21.21244
G1 X140.432 Y73.318 E21.24246
G1 X141.31 Y73.529 E21.2725
G1 X142.166 Y73.817 E21.30254
G1 X142.993 Y74.179 E21.33256
G1 X143.785 Y74.614 E21.36262
G1 X144.536 Y75.116 E21.39266
G1 X145.239 Y75.683 E21.4227
G1 X145.889 Y76.31 E21.45274
G1 X146.481 Y76.992 E21.48277
G1 X147.011 Y77.723 E21.51281
G1 X147.473 Y78.499 E21.54284
G1 X147.866 Y79.312 E21.57288
G1 X148.184 Y80.157 E21.60291
G1 X148.427 Y81.027 E21.63295
G1 X148.592 Y81.915 E21.66299
G1 X148.687 Y83.043 E21.70064
G1 X148.7 Y83.65 E21.72083
G1 X148.699 Y94.726 E22.08922
G1 X148.689 Y95.453 E22.11341
G1 X148.637 Y96.355 E22.14346
G1 X148.505 Y97.248 E22.17348
G1 X148.294 Y98.127 E22.20355
G1 X148.007 Y98.983 E22.23358
G1 X147.645 Y99.81 E22.2636
G1 X147.211 Y100.602 E22.29364
G1 X146.709 Y101.353 E22.32368
G1 X146.143 Y102.056 E22.3537
G1 X145.516 Y102.707 E22.38376
G1 X144.835 Y103.299 E22.41378
G1 X144.104 Y103.829 E22.44381
G1 X143.328 Y104.292 E22.47386
G1 X142.515 Y104.685 E22.5039
G1 X141.358 Y105.102 E22.5448
G1 X140.244 Y105.428 E22.58341
G1 X137.769 Y106.188 E22.66952
G1 X135.387 Y106.994 E22.75316
G1 X132.973 Y107.889 E22.83879
G1 X130.657 Y108.821 E22.92182
G1 X128.312 Y109.843 E23.0069
G1 X126.003 Y110.928 E23.09176
G1 X123.746 Y112.069 E23.17587
G1 X121.513 Y113.276 E23.2603
G1 X119.302 Y114.554 E23.34524
G1 X117.157 Y115.877 E23.42906
G1 X115.009 Y117.287 E23.51452
G1 X112.946 Y118.726 E23.59818
G1 X110.905 Y120.237 E23.68264
G1 X108.913 Y121.802 E23.7669
G1 X106.939 Y123.444 E23.8523
G1 X105.054 Y125.104 E23.93584
G1 X103.022 Y127.002 E24.02832
G1 X102.241 Y127.753 E24.06435
G1 X101.517 Y128.386 E24.09634
G1 X100.981 Y128.812 E24.11911
G1 X100.25 Y129.342 E24.14914
G1 X99.749 Y129.653 E24.16876
G1 X99.05 Y130.058 E24.19563
G1 X98.249 Y130.475 E24.22566
G1 X97.829 Y130.66 E24.24093
G1 X97.211 Y130.909 E24.26309
G1 X96.895 Y131.027 E24.27431
G1 X95.693 Y131.393 E24.3161
G1 X94.955 Y131.569 E24.34133
G1 X94.068 Y131.739 E24.37137
G1 X93.5 Y131.806 E24.39039
G1 X92.931 Y131.857 E24.40939
G1 X92.432 Y131.89 E24.42603
G1 X91.839 Y131.914 E24.44577
G1 X91.426 Y131.922 E24.4595
G1 X81.873 Y131.92 E24.77724
G1 X81.167 Y131.91 E24.80072
G1 X80.532 Y131.884 E24.82186
G1 X79.735 Y131.819 E24.84846
G1 X78.514 Y131.632 E24.88954
G1 X77.727 Y131.462 E24.91632
G1 X76.854 Y131.232 E24.94635
G1 X76.19 Y131.001 E24.96973
G1 X75.497 Y130.732 E24.99446
G1 X74.67 Y130.368 E25.02451
G1 X74.149 Y130.091 E25.04413
G1 X73.431 Y129.683 E25.0716
G1 X72.666 Y129.203 E25.10164
G1 X72.188 Y128.851 E25.12138
G1 X71.614 Y128.389 E25.14589
G1 X70.622 Y127.539 E25.18934
G1 X68.619 Y125.874 E25.27597
G1 X66.609 Y124.298 E25.36092
G1 X64.573 Y122.792 E25.44515
G1 X62.482 Y121.335 E25.52992
G1 X60.349 Y119.936 E25.61476
G1 X58.983 Y119.089 E25.66822
G1 X57.828 Y118.334 E25.71411
G1 X57.096 Y117.805 E25.74415
G1 X56.595 Y117.381 E25.76598
G1 X56.069 Y116.906 E25.78955
