;FLAVOR:Marlin
;TIME:12591
;Filament used: 13.7429m
;Layer height: 0.25
;MINX:79.35
;MINY:37.728
;MINZ:0.2
;MAXX:140.649
;MAXY:182.29
;MAXZ:15.95
;Generated with Cura_SteamEngine 4.4.1
M140 S110
M105
M190 S110
M104 S245
M105
M109 S245
M82 ;absolute extrusion mode
M201 X500.00 Y500.00 Z100.00 E5000.00 ;Setup machine max acceleration
M203 X500.00 Y500.00 Z10.00 E50.00 ;Setup machine max feedrate
M204 P500.00 R1000.00 T500.00 ;Setup Print/Retract/Travel acceleration
M205 X8.00 Y8.00 Z0.40 E5.00 ;Setup Jerk
M220 S100 ;Reset Feedrate
M221 S100 ;Reset Flowrate

G28 ;Home

G92 E0 ;Reset Extruder
G1 Z2.0 F3000 ;Move Z Axis up
G1 X10.1 Y20 Z0.28 F5000.0 ;Move to start position
G1 X10.1 Y200.0 Z0.28 F1500.0 E15 ;Draw the first line
G1 X10.4 Y200.0 Z0.28 F5000.0 ;Move to side a little
G1 X10.4 Y20 Z0.28 F1500.0 E30 ;Draw the second line
G92 E0 ;Reset Extruder
G1 Z2.0 F3000 ;Move Z Axis up

G92 E0
G92 E0
G1 F1500 E-6.5
;LAYER_COUNT:64
;LAYER:0
M107
G0 F6000 X84.061 Y52.04 Z0.2
;TYPE:SKIRT
G1 F1500 E0
G1 F1200 X84.455 Y51.432 E0.03012
G1 X84.982 Y50.673 E0.06854
G1 X85.151 Y50.436 E0.08064
G1 X85.649 Y49.757 E0.11565
G1 X86.114 Y49.166 E0.14691
G1 X86.821 Y48.326 E0.19256
G1 X87.016 Y48.1 E0.20497
G1 X87.436 Y47.627 E0.23127
G1 X87.905 Y47.13 E0.25968
G1 X88.586 Y46.451 E0.29966
G1 X88.811 Y46.233 E0.31268
G1 X89.406 Y45.672 E0.34668
G1 X89.958 Y45.185 E0.37729
G1 X90.833 Y44.462 E0.42448
G1 X91.078 Y44.265 E0.43755
G1 X91.547 Y43.899 E0.46228
G1 X92.078 Y43.509 E0.48967
G1 X92.846 Y42.979 E0.52847
G1 X93.098 Y42.81 E0.54108
G1 X93.78 Y42.366 E0.57492
G1 X94.399 Y41.991 E0.60501
G1 X95.241 Y41.517 E0.64518
G1 X95.499 Y41.376 E0.6574
G1 X96.204 Y41.003 E0.69056
G1 X96.856 Y40.685 E0.72072
G1 X97.711 Y40.301 E0.75969
G1 X97.971 Y40.188 E0.77147
G1 X98.713 Y39.877 E0.80492
G1 X99.396 Y39.616 E0.83532
G1 X100.31 Y39.301 E0.87551
G1 X100.608 Y39.203 E0.88856
G1 X101.325 Y38.978 E0.9198
G1 X102.014 Y38.786 E0.94954
G1 X103.107 Y38.518 E0.99632
G1 X103.385 Y38.453 E1.00819
G1 X104.035 Y38.311 E1.03585
G1 X104.739 Y38.181 E1.06562
G1 X105.689 Y38.036 E1.10557
G1 X105.982 Y37.995 E1.11787
G1 X106.769 Y37.896 E1.15085
G1 X107.479 Y37.829 E1.1805
G1 X108.418 Y37.771 E1.21961
G1 X108.735 Y37.756 E1.23281
G1 X109.571 Y37.728 E1.26758
G1 X110.303 Y37.728 E1.29802
G1 X111.38 Y37.762 E1.34282
G1 X111.676 Y37.775 E1.35513
G1 X112.332 Y37.813 E1.38245
G1 X113.052 Y37.878 E1.41251
G1 X114.192 Y38.018 E1.46026
G1 X114.5 Y38.06 E1.47318
G1 X115.083 Y38.148 E1.4977
G1 X115.73 Y38.265 E1.52503
G1 X116.629 Y38.455 E1.56323
G1 X116.941 Y38.526 E1.57654
G1 X117.77 Y38.726 E1.61199
G1 X118.44 Y38.909 E1.64087
G1 X119.311 Y39.177 E1.67875
G1 X119.609 Y39.274 E1.69178
G1 X120.395 Y39.54 E1.72628
G1 X121.069 Y39.792 E1.7562
G1 X121.949 Y40.154 E1.79576
G1 X122.237 Y40.277 E1.80878
G1 X122.973 Y40.604 E1.84226
G1 X123.589 Y40.901 E1.87069
G1 X124.396 Y41.32 E1.9085
G1 X124.684 Y41.474 E1.92208
G1 X125.408 Y41.877 E1.95653
G1 X126.004 Y42.234 E1.98541
G1 X126.822 Y42.758 E2.0258
G1 X127.099 Y42.941 E2.0396
G1 X127.771 Y43.4 E2.07343
G1 X128.359 Y43.831 E2.10374
G1 X129.21 Y44.497 E2.14867
G1 X129.469 Y44.705 E2.16248
G1 X129.985 Y45.134 E2.19038
G1 X130.485 Y45.575 E2.2181
G1 X131.262 Y46.303 E2.26237
G1 X131.517 Y46.55 E2.27713
G1 X131.994 Y47.026 E2.30514
G1 X132.429 Y47.485 E2.33143
G1 X133.053 Y48.182 E2.37033
G1 X133.258 Y48.417 E2.38329
G1 X133.782 Y49.036 E2.41701
G1 X134.226 Y49.597 E2.44676
G1 X134.792 Y50.359 E2.48622
G1 X134.968 Y50.602 E2.49869
G1 X135.435 Y51.267 E2.53248
G1 X135.827 Y51.866 E2.56224
G1 X136.289 Y52.622 E2.59907
G1 X136.439 Y52.874 E2.61127
G1 X136.864 Y53.612 E2.64667
G1 X137.222 Y54.286 E2.6784
G1 X137.724 Y55.313 E2.72593
G1 X137.859 Y55.598 E2.73904
G1 X138.114 Y56.159 E2.76466
G1 X138.379 Y56.793 E2.79323
G1 X138.787 Y57.859 E2.84068
G1 X138.898 Y58.161 E2.85406
G1 X139.098 Y58.732 E2.87921
G1 X139.306 Y59.392 E2.90798
G1 X139.614 Y60.482 E2.95507
G1 X139.7 Y60.804 E2.96893
G1 X139.851 Y61.406 E2.99473
G1 X139.988 Y62.028 E3.02121
G1 X140.162 Y62.937 E3.05969
G1 X140.22 Y63.262 E3.07342
G1 X140.352 Y64.081 E3.10791
G1 X140.442 Y64.785 E3.13741
G1 X140.533 Y65.723 E3.17659
G1 X140.559 Y66.025 E3.1892
G1 X140.615 Y66.827 E3.22262
G1 X140.642 Y67.525 E3.25166
G1 X140.649 Y68.437 E3.28958
G1 X140.647 Y68.748 E3.30251
G1 X140.63 Y69.596 E3.33777
G1 X140.593 Y70.312 E3.36758
G1 X140.514 Y71.253 E3.40684
G1 X140.481 Y71.579 E3.42046
G1 X140.259 Y73.539 E3.50247
G1 X139.997 Y76.156 E3.61182
G1 X139.818 Y78.642 E3.71544
G1 X139.709 Y81.172 E3.82072
G1 X139.669 Y83.853 E3.9322
G1 X139.668 Y136.683 E6.12862
G1 X139.668 Y170.664 E7.54138
G1 X139.628 Y171.612 E7.58083
G1 X139.508 Y172.553 E7.62027
G1 X139.31 Y173.48 E7.65968
G1 X139.034 Y174.388 E7.69913
G1 X138.682 Y175.269 E7.73858
G1 X138.373 Y175.904 E7.76794
G1 X138.283 Y176.075 E7.77597
G1 X137.807 Y176.895 E7.81539
G1 X137.082 Y177.901 E7.86694
G1 X136.969 Y178.041 E7.87442
G1 X136.343 Y178.753 E7.91384
G1 X135.659 Y179.41 E7.95327
G1 X134.922 Y180.007 E7.9927
G1 X134.137 Y180.54 E8.03215
G1 X133.31 Y181.005 E8.0716
G1 X132.447 Y181.398 E8.11102
G1 X131.554 Y181.718 E8.15046
G1 X130.768 Y181.931 E8.18432
G1 X130.532 Y181.986 E8.19439
G1 X129.6 Y182.163 E8.23383
G1 X128.345 Y182.274 E8.28621
G1 X128.038 Y182.284 E8.29898
G1 X127.672 Y182.29 E8.3142
G1 X92.707 Y182.29 E9.76788
G1 X92.546 Y182.289 E9.77457
G1 X91.849 Y182.279 E9.80355
G1 X90.902 Y182.225 E9.84299
G1 X89.982 Y182.096 E9.88161
G1 X89.791 Y182.061 E9.88968
G1 X88.866 Y181.851 E9.92912
G1 X87.962 Y181.563 E9.96856
G1 X87.086 Y181.201 E10.00797
G1 X86.243 Y180.766 E10.04741
G1 X85.44 Y180.262 E10.08683
G1 X84.682 Y179.691 E10.12628
G1 X83.975 Y179.059 E10.16571
G1 X83.346 Y178.395 E10.20373
G1 X83.146 Y178.166 E10.21637
G1 X82.552 Y177.426 E10.25582
G1 X82.024 Y176.639 E10.29523
G1 X81.563 Y175.81 E10.33466
G1 X81.134 Y174.844 E10.37861
G1 X81.099 Y174.754 E10.38262
G1 X80.793 Y173.856 E10.42206
G1 X80.563 Y172.936 E10.46149
G1 X80.412 Y171.999 E10.50095
G1 X80.334 Y170.676 E10.55605
G1 X80.332 Y114.056 E12.91003
G1 X80.332 Y83.755 E14.1698
G1 X80.295 Y81.184 E14.2767
G1 X80.189 Y78.678 E14.38098
G1 X80.013 Y76.191 E14.48464
G1 X79.71 Y73.209 E14.60926
G1 X79.525 Y71.637 E14.67506
G1 X79.493 Y71.321 E14.68827
G1 X79.421 Y70.514 E14.72195
G1 X79.379 Y69.777 E14.75264
G1 X79.353 Y68.664 E14.79893
G1 X79.35 Y68.348 E14.81207
G1 X79.353 Y67.712 E14.83851
G1 X79.376 Y67.05 E14.86605
G1 X79.435 Y66.123 E14.90467
G1 X79.459 Y65.806 E14.91788
G1 X79.535 Y64.981 E14.95233
G1 X79.622 Y64.284 E14.98153
G1 X79.769 Y63.339 E15.02129
G1 X79.82 Y63.035 E15.03411
G1 X79.965 Y62.246 E15.06746
G1 X80.125 Y61.515 E15.09857
G1 X80.403 Y60.418 E15.14562
G1 X80.479 Y60.132 E15.15792
G1 X80.646 Y59.539 E15.18354
G1 X80.864 Y58.85 E15.21358
G1 X81.234 Y57.8 E15.25987
G1 X81.34 Y57.512 E15.27263
G1 X81.57 Y56.912 E15.29934
G1 X81.843 Y56.263 E15.32861
G1 X82.326 Y55.206 E15.37693
G1 X82.447 Y54.95 E15.3887
G1 X82.686 Y54.46 E15.41137
G1 X83.012 Y53.841 E15.44045
G1 X83.518 Y52.949 E15.48309
G1 X83.668 Y52.692 E15.49546
G1 X84.061 Y52.04 E15.52711
G0 F6000 X84.489 Y52.298
G1 F1200 X84.866 Y51.717 E15.55591
G1 X85.393 Y50.958 E15.59432
G1 X85.555 Y50.731 E15.60592
G1 X86.053 Y50.052 E15.64092
G1 X86.496 Y49.488 E15.67074
G1 X87.203 Y48.648 E15.71639
G1 X87.39 Y48.432 E15.72827
G1 X87.81 Y47.959 E15.75456
G1 X88.258 Y47.484 E15.78171
G1 X88.939 Y46.805 E15.82169
G1 X89.154 Y46.596 E15.83416
G1 X89.749 Y46.035 E15.86816
G1 X90.277 Y45.57 E15.89741
G1 X91.152 Y44.847 E15.9446
G1 X91.385 Y44.659 E15.95705
G1 X91.854 Y44.293 E15.98178
G1 X92.362 Y43.92 E16.00798
G1 X93.13 Y43.39 E16.04678
G1 X93.371 Y43.229 E16.05883
G1 X94.053 Y42.785 E16.09266
G1 X94.645 Y42.426 E16.12144
G1 X95.487 Y41.952 E16.16162
G1 X95.733 Y41.818 E16.17326
G1 X96.438 Y41.445 E16.20642
G1 X97.061 Y41.141 E16.23524
G1 X97.916 Y40.757 E16.27421
G1 X98.165 Y40.649 E16.28549
G1 X98.907 Y40.338 E16.31894
G1 X99.559 Y40.089 E16.34796
G1 X100.473 Y39.774 E16.38815
G1 X100.757 Y39.68 E16.40059
G1 X101.474 Y39.455 E16.43183
G1 X102.133 Y39.271 E16.46028
G1 X103.226 Y39.003 E16.50707
G1 X103.492 Y38.942 E16.51841
G1 X104.142 Y38.8 E16.54607
G1 X104.814 Y38.675 E16.57449
G1 X105.764 Y38.53 E16.61444
G1 X106.044 Y38.491 E16.6262
G1 X106.831 Y38.392 E16.65918
G1 X107.51 Y38.328 E16.68753
G1 X108.449 Y38.27 E16.72664
G1 X108.752 Y38.256 E16.73925
G1 X109.588 Y38.228 E16.77403
G1 X110.287 Y38.227 E16.80309
G1 X111.364 Y38.261 E16.84789
G1 X111.647 Y38.274 E16.85967
G1 X112.303 Y38.312 E16.88699
G1 X112.991 Y38.374 E16.91571
G1 X114.131 Y38.514 E16.96346
G1 X114.425 Y38.554 E16.9758
G1 X115.008 Y38.642 E17.00031
G1 X115.627 Y38.754 E17.02646
G1 X116.526 Y38.944 E17.06466
G1 X116.824 Y39.012 E17.07737
G1 X117.653 Y39.212 E17.11283
G1 X118.293 Y39.387 E17.14041
G1 X119.164 Y39.655 E17.1783
G1 X119.449 Y39.747 E17.19075
G1 X120.235 Y40.013 E17.22525
G1 X120.879 Y40.254 E17.25383
G1 X121.759 Y40.616 E17.2934
G1 X122.034 Y40.734 E17.30584
G1 X122.77 Y41.061 E17.33932
G1 X123.359 Y41.344 E17.36649
G1 X124.166 Y41.763 E17.40429
G1 X124.44 Y41.911 E17.41724
G1 X125.164 Y42.314 E17.45169
G1 X125.735 Y42.655 E17.47934
G1 X126.553 Y43.179 E17.51973
G1 X126.817 Y43.354 E17.5329
G1 X127.489 Y43.813 E17.56673
G1 X128.051 Y44.224 E17.59568
G1 X128.902 Y44.89 E17.6406
G1 X129.15 Y45.09 E17.65385
G1 X129.666 Y45.519 E17.68175
G1 X130.143 Y45.94 E17.7082
G1 X130.92 Y46.668 E17.75247
G1 X131.163 Y46.904 E17.76655
G1 X131.64 Y47.38 E17.79457
G1 X132.056 Y47.819 E17.81971
G1 X132.68 Y48.516 E17.8586
G1 X132.876 Y48.74 E17.87098
G1 X133.4 Y49.359 E17.9047
G1 X133.825 Y49.895 E17.93314
G1 X134.391 Y50.657 E17.9726
G1 X134.558 Y50.889 E17.98448
G1 X135.025 Y51.554 E18.01827
G1 X135.401 Y52.126 E18.04673
G1 X135.863 Y52.882 E18.08356
G1 X136.006 Y53.123 E18.09521
G1 X136.431 Y53.861 E18.13062
G1 X136.773 Y54.505 E18.16093
G1 X137.275 Y55.532 E18.20846
G1 X137.403 Y55.805 E18.221
G1 X137.658 Y56.366 E18.24662
G1 X137.912 Y56.971 E18.2739
G1 X138.32 Y58.037 E18.32135
G1 X138.426 Y58.326 E18.33415
G1 X138.626 Y58.897 E18.3593
G1 X138.825 Y59.528 E18.38681
G1 X139.133 Y60.618 E18.4339
G1 X139.215 Y60.926 E18.44715
G1 X139.366 Y61.528 E18.47296
G1 X139.497 Y62.122 E18.49824
G1 X139.671 Y63.031 E18.53672
G1 X139.726 Y63.341 E18.54981
G1 X139.858 Y64.16 E18.5843
G1 X139.945 Y64.833 E18.61251
G1 X140.036 Y65.771 E18.65169
G1 X140.06 Y66.06 E18.66375
G1 X140.116 Y66.862 E18.69718
G1 X140.142 Y67.528 E18.72489
G1 X140.149 Y68.44 E18.7628
G1 X140.147 Y68.738 E18.77519
G1 X140.13 Y69.586 E18.81046
G1 X140.094 Y70.27 E18.83893
G1 X140.015 Y71.211 E18.87819
G1 X139.985 Y71.523 E18.89122
G1 X139.751 Y73.587 E18.97759
G1 X139.499 Y76.107 E19.08288
G1 X139.318 Y78.621 E19.18767
G1 X139.209 Y81.144 E19.29266
G1 X139.169 Y83.845 E19.40497
G1 X139.168 Y136.683 E21.60172
G1 X139.168 Y170.664 E23.01448
G1 X139.128 Y171.59 E23.05302
G1 X139.008 Y172.51 E23.09159
G1 X138.81 Y173.416 E23.13014
G1 X138.534 Y174.301 E23.16869
G1 X138.183 Y175.159 E23.20723
G1 X137.931 Y175.671 E23.23095
G1 X137.841 Y175.842 E23.23899
G1 X137.374 Y176.643 E23.27753
G1 X136.693 Y177.587 E23.32593
G1 X136.58 Y177.727 E23.33341
G1 X135.967 Y178.423 E23.37197
G1 X135.297 Y179.063 E23.41049
G1 X134.573 Y179.643 E23.44906
G1 X133.803 Y180.159 E23.48759
G1 X132.991 Y180.606 E23.52613
G1 X132.143 Y180.982 E23.5647
G1 X131.266 Y181.283 E23.60325
G1 X130.655 Y181.444 E23.62951
G1 X130.419 Y181.499 E23.63959
G1 X129.508 Y181.671 E23.67813
G1 X128.329 Y181.774 E23.72734
G1 X128.022 Y181.784 E23.74011
G1 X127.672 Y181.79 E23.75466
G1 X92.707 Y181.79 E25.20834
G1 X92.553 Y181.789 E25.21474
G1 X91.856 Y181.779 E25.24372
G1 X90.93 Y181.726 E25.28228
G1 X90.072 Y181.604 E25.31831
G1 X89.881 Y181.569 E25.32639
G1 X88.977 Y181.363 E25.36493
G1 X88.095 Y181.079 E25.40346
G1 X87.24 Y180.721 E25.44199
G1 X86.419 Y180.29 E25.48054
G1 X85.638 Y179.79 E25.5191
G1 X84.903 Y179.225 E25.55764
G1 X84.22 Y178.598 E25.59619
G1 X83.722 Y178.066 E25.62648
G1 X83.522 Y177.837 E25.63912
G1 X82.943 Y177.113 E25.67767
G1 X82.428 Y176.342 E25.71621
G1 X81.982 Y175.53 E25.75473
G1 X81.6 Y174.662 E25.79416
G1 X81.565 Y174.572 E25.79817
G1 X81.266 Y173.695 E25.8367
G1 X81.045 Y172.794 E25.87527
G1 X80.901 Y171.878 E25.91382
G1 X80.834 Y170.676 E25.96387
G1 X80.832 Y114.056 E28.31785
G1 X80.832 Y83.755 E29.57762
G1 X80.795 Y81.156 E29.68569
G1 X80.689 Y78.658 E29.78963
G1 X80.51 Y76.136 E29.89475
G1 X80.208 Y73.162 E30.01903
G1 X80.022 Y71.578 E30.08534
G1 X79.991 Y71.276 E30.09796
G1 X79.919 Y70.469 E30.13165
G1 X79.879 Y69.765 E30.16096
G1 X79.853 Y68.652 E30.20725
G1 X79.85 Y68.35 E30.2198
G1 X79.853 Y67.714 E30.24625
G1 X79.875 Y67.082 E30.27254
G1 X79.934 Y66.155 E30.31116
G1 X79.957 Y65.852 E30.32379
G1 X80.033 Y65.027 E30.35823
G1 X80.116 Y64.361 E30.38614
G1 X80.263 Y63.416 E30.4259
G1 X80.312 Y63.125 E30.43817
G1 X80.457 Y62.336 E30.47152
G1 X80.609 Y61.638 E30.50122
G1 X80.887 Y60.541 E30.54827
G1 X80.96 Y60.268 E30.56002
G1 X81.127 Y59.675 E30.58563
G1 X81.336 Y59.016 E30.61437
G1 X81.706 Y57.966 E30.66066
G1 X81.807 Y57.691 E30.67284
G1 X82.037 Y57.091 E30.69955
G1 X82.297 Y56.471 E30.7275
G1 X82.78 Y55.414 E30.77582
G1 X82.896 Y55.169 E30.78709
G1 X83.135 Y54.679 E30.80976
G1 X83.447 Y54.088 E30.83754
G1 X83.953 Y53.196 E30.88018
G1 X84.096 Y52.95 E30.89201
G1 X84.489 Y52.298 E30.92366
G0 F6000 X84.917 Y52.557
G1 F1200 X85.277 Y52.002 E30.95116
G1 X85.804 Y51.243 E30.98958
G1 X85.958 Y51.027 E31.00061
G1 X86.456 Y50.348 E31.03561
G1 X86.879 Y49.81 E31.06407
G1 X87.586 Y48.97 E31.10971
G1 X87.763 Y48.764 E31.12101
G1 X88.183 Y48.291 E31.1473
G1 X88.611 Y47.839 E31.17318
G1 X89.292 Y47.16 E31.21317
G1 X89.497 Y46.96 E31.22507
G1 X90.092 Y46.399 E31.25907
G1 X90.595 Y45.955 E31.28697
G1 X91.47 Y45.232 E31.33416
G1 X91.693 Y45.053 E31.34604
G1 X92.162 Y44.687 E31.37078
G1 X92.646 Y44.332 E31.39573
G1 X93.414 Y43.802 E31.43453
G1 X93.644 Y43.648 E31.44603
G1 X94.326 Y43.204 E31.47987
G1 X94.89 Y42.862 E31.50729
G1 X95.732 Y42.388 E31.54746
G1 X95.967 Y42.26 E31.55859
G1 X96.672 Y41.887 E31.59175
G1 X97.266 Y41.597 E31.61923
G1 X98.121 Y41.213 E31.6582
G1 X98.358 Y41.11 E31.66894
G1 X99.1 Y40.799 E31.70239
G1 X99.722 Y40.561 E31.73008
G1 X100.636 Y40.246 E31.77027
G1 X100.907 Y40.157 E31.78213
G1 X101.624 Y39.932 E31.81337
G1 X102.252 Y39.757 E31.84048
G1 X103.345 Y39.489 E31.88726
G1 X103.598 Y39.43 E31.89807
G1 X104.248 Y39.288 E31.92573
G1 X104.889 Y39.169 E31.95283
G1 X105.839 Y39.024 E31.99279
G1 X106.107 Y38.987 E32.00403
G1 X106.894 Y38.888 E32.03701
G1 X107.541 Y38.827 E32.06403
G1 X108.48 Y38.769 E32.10314
G1 X108.769 Y38.756 E32.11517
G1 X109.605 Y38.728 E32.14995
G1 X110.271 Y38.727 E32.17764
G1 X111.348 Y38.761 E32.22243
G1 X111.618 Y38.773 E32.23367
G1 X112.274 Y38.811 E32.26099
G1 X112.93 Y38.87 E32.28837
G1 X114.07 Y39.01 E32.33612
G1 X114.351 Y39.049 E32.34792
G1 X114.934 Y39.137 E32.37243
G1 X115.523 Y39.244 E32.39732
G1 X116.422 Y39.434 E32.43552
G1 X116.707 Y39.498 E32.44767
G1 X117.536 Y39.698 E32.48312
G1 X118.146 Y39.865 E32.50942
G1 X119.017 Y40.133 E32.5473
G1 X119.289 Y40.221 E32.55919
G1 X120.075 Y40.487 E32.59369
G1 X120.688 Y40.717 E32.62091
G1 X121.568 Y41.079 E32.66047
G1 X121.831 Y41.191 E32.67235
G1 X122.567 Y41.518 E32.70584
G1 X123.128 Y41.788 E32.73172
G1 X123.935 Y42.207 E32.76952
G1 X124.197 Y42.348 E32.78189
G1 X124.921 Y42.751 E32.81634
G1 X125.465 Y43.076 E32.84269
G1 X126.283 Y43.6 E32.88308
G1 X126.535 Y43.767 E32.89565
G1 X127.207 Y44.226 E32.92948
G1 X127.743 Y44.618 E32.95709
G1 X128.594 Y45.284 E33.00201
G1 X128.83 Y45.474 E33.01461
G1 X129.346 Y45.903 E33.04251
G1 X129.801 Y46.305 E33.06775
G1 X130.578 Y47.033 E33.11202
G1 X130.81 Y47.258 E33.12546
G1 X131.287 Y47.734 E33.15347
G1 X131.684 Y48.152 E33.17744
G1 X132.308 Y48.849 E33.21633
G1 X132.494 Y49.063 E33.22812
G1 X133.018 Y49.682 E33.26184
G1 X133.423 Y50.193 E33.28895
G1 X133.989 Y50.955 E33.32841
G1 X134.149 Y51.176 E33.33976
G1 X134.616 Y51.841 E33.37354
G1 X134.974 Y52.387 E33.40068
G1 X135.436 Y53.143 E33.43752
G1 X135.572 Y53.373 E33.44863
